;FLAVOR:Repetier
;TIME:1617
;Generated with Cura_SteamEngine 3.5.1
M190 S80
M104 S240
M109 S240
M82 ;absolute extrusion mode
G21 ;metric values
G90 ;absolute positioning
M82 ;set extruder to absolute mode
M107 ;start with the fan off
G28 X0 Y0 ;move X/Y to min endstops
G28 Z0 ;move Z to min endstops
G1 Z15.0 F9000 ;move the platform down 15mm
G92 E0 ;zero the extruded length
G1 F200 E3 ;extrude 3mm of feed stock
G92 E0 ;zero the extruded length again
G1 F9000
;Put printing message on LCD screen
M117 Printing...
G92 E0
;LAYER_COUNT:169
;LAYER:0
M107
G0 F3600 X84.224 Y56.163 Z0.3
;TYPE:SKIRT
G1 F1800 X84.707 Y55.539 E0.03937
G1 X85.112 Y55.102 E0.06909
G1 X85.229 Y54.985 E0.07735
G1 X85.815 Y54.455 E0.11677
G1 X86.451 Y53.988 E0.15613
G1 X87.131 Y53.587 E0.19552
G1 X87.849 Y53.257 E0.23494
G1 X88.596 Y53.002 E0.27432
G1 X89.365 Y52.823 E0.31371
G1 X90.149 Y52.723 E0.35314
G1 X90.744 Y52.7 E0.38285
G1 X107.51 Y52.7 E1.21931
G1 X108.299 Y52.74 E1.25872
G1 X108.568 Y52.781 E1.2723
G1 X109.022 Y52.723 E1.29513
G1 X109.617 Y52.7 E1.32484
G1 X126.383 Y52.7 E2.1613
G1 X127.172 Y52.74 E2.20071
G1 X127.952 Y52.859 E2.24008
G1 X128.717 Y53.057 E2.2795
G1 X129.457 Y53.331 E2.31887
G1 X130.166 Y53.679 E2.35827
G1 X130.837 Y54.097 E2.39771
G1 X131.461 Y54.58 E2.43708
G1 X131.898 Y54.985 E2.46681
G1 X132.015 Y55.102 E2.47506
G1 X132.545 Y55.688 E2.51448
G1 X133.012 Y56.324 E2.55385
G1 X133.413 Y57.004 E2.59323
G1 X133.743 Y57.722 E2.63265
G1 X133.998 Y58.469 E2.67203
G1 X134.177 Y59.238 E2.71143
G1 X134.277 Y60.022 E2.75086
G1 X134.299 Y60.739 E2.78664
G1 X134.269 Y62.653 E2.88215
G1 X134.217 Y63.441 E2.92154
G1 X134.085 Y64.22 E2.96096
G1 X133.875 Y64.981 E3.00035
G1 X133.59 Y65.717 E3.03972
G1 X133.231 Y66.421 E3.07915
G1 X132.803 Y67.085 E3.11856
G1 X132.31 Y67.702 E3.15796
G1 X131.978 Y68.054 E3.18211
G1 X116.967 Y83.023 E4.23973
G1 X116.38 Y83.552 E4.27915
G1 X115.743 Y84.018 E4.31853
G1 X115.062 Y84.418 E4.35793
G1 X114.344 Y84.747 E4.39734
G1 X113.596 Y85.001 E4.43675
G1 X112.827 Y85.179 E4.47613
G1 X112.043 Y85.278 E4.51555
G1 X111.459 Y85.3 E4.54471
G1 X109.617 Y85.3 E4.63661
G1 X108.828 Y85.26 E4.67602
G1 X108.559 Y85.219 E4.68959
G1 X108.105 Y85.277 E4.71243
G1 X107.388 Y85.299 E4.74822
G1 X105.474 Y85.269 E4.84372
G1 X104.686 Y85.217 E4.88312
G1 X103.907 Y85.085 E4.92254
G1 X103.146 Y84.875 E4.96192
G1 X102.41 Y84.59 E5.0013
G1 X101.706 Y84.231 E5.04072
G1 X101.042 Y83.803 E5.08014
G1 X100.425 Y83.31 E5.11954
G1 X100.073 Y82.978 E5.14368
G1 X85.104 Y67.967 E6.2013
G1 X84.575 Y67.38 E6.24073
G1 X84.109 Y66.743 E6.2801
G1 X83.709 Y66.062 E6.31951
G1 X83.38 Y65.344 E6.35891
G1 X83.126 Y64.596 E6.39832
G1 X82.948 Y63.827 E6.4377
G1 X82.849 Y63.043 E6.47712
G1 X82.827 Y62.459 E6.50628
G1 X82.827 Y60.617 E6.59818
G1 X82.867 Y59.828 E6.63759
G1 X82.986 Y59.048 E6.67696
G1 X83.184 Y58.283 E6.71638
G1 X83.458 Y57.543 E6.75575
G1 X83.806 Y56.834 E6.79515
G1 X84.224 Y56.163 E6.83459
G0 F3600 X84.621 Y56.294
G1 F1800 X85.102 Y55.694 E6.87296
G1 X85.394 Y55.384 E6.89421
G1 X85.511 Y55.267 E6.90246
G1 X86.083 Y54.753 E6.94083
G1 X86.705 Y54.3 E6.97922
G1 X87.37 Y53.914 E7.01758
G1 X88.072 Y53.599 E7.05596
G1 X88.803 Y53.359 E7.09435
G1 X89.554 Y53.196 E7.13269
G1 X90.319 Y53.112 E7.17108
G1 X90.744 Y53.1 E7.1923
G1 X107.51 Y53.1 E8.02876
G1 X108.278 Y53.14 E8.06712
G1 X108.55 Y53.183 E8.08086
G1 X109.192 Y53.112 E8.11309
G1 X109.617 Y53.1 E8.1343
G1 X126.383 Y53.1 E8.97076
G1 X127.151 Y53.14 E9.00912
G1 X127.911 Y53.259 E9.0475
G1 X128.654 Y53.457 E9.08587
G1 X129.373 Y53.731 E9.12425
G1 X130.059 Y54.078 E9.16261
G1 X130.706 Y54.494 E9.20098
G1 X131.306 Y54.975 E9.23935
G1 X131.616 Y55.267 E9.26059
G1 X131.733 Y55.384 E9.26885
G1 X132.247 Y55.956 E9.30722
G1 X132.7 Y56.578 E9.34561
G1 X133.086 Y57.243 E9.38397
G1 X133.401 Y57.945 E9.42235
G1 X133.641 Y58.676 E9.46074
G1 X133.804 Y59.427 E9.49908
G1 X133.888 Y60.192 E9.53747
G1 X133.899 Y60.733 E9.56447
G1 X133.869 Y62.647 E9.65997
G1 X133.817 Y63.414 E9.69832
G1 X133.686 Y64.172 E9.7367
G1 X133.476 Y64.912 E9.77508
G1 X133.191 Y65.627 E9.81348
G1 X132.834 Y66.308 E9.85184
G1 X132.407 Y66.948 E9.89022
G1 X131.695 Y67.771 E9.94452
G1 X116.684 Y82.74 E11.00214
G1 X116.112 Y83.254 E11.04051
G1 X115.49 Y83.706 E11.07887
G1 X114.824 Y84.091 E11.11725
G1 X114.121 Y84.404 E11.15564
G1 X113.39 Y84.643 E11.19401
G1 X112.639 Y84.805 E11.23234
G1 X111.874 Y84.888 E11.27073
G1 X111.459 Y84.9 E11.29144
G1 X109.617 Y84.9 E11.38334
G1 X108.849 Y84.86 E11.42171
G1 X108.577 Y84.817 E11.43545
G1 X107.935 Y84.888 E11.46767
G1 X107.394 Y84.899 E11.49467
G1 X105.48 Y84.869 E11.59017
G1 X104.713 Y84.817 E11.62852
G1 X103.955 Y84.686 E11.6669
G1 X103.215 Y84.476 E11.70528
G1 X102.5 Y84.191 E11.74368
G1 X101.819 Y83.834 E11.78204
G1 X101.179 Y83.407 E11.82042
G1 X100.356 Y82.695 E11.87472
G1 X85.387 Y67.684 E12.93234
G1 X84.873 Y67.112 E12.97071
G1 X84.421 Y66.49 E13.00907
G1 X84.036 Y65.824 E13.04745
G1 X83.723 Y65.121 E13.08584
G1 X83.484 Y64.39 E13.12421
G1 X83.322 Y63.639 E13.16254
G1 X83.239 Y62.874 E13.20093
G1 X83.227 Y62.459 E13.22164
G1 X83.227 Y60.617 E13.31354
G1 X83.267 Y59.849 E13.35191
G1 X83.386 Y59.089 E13.39028
G1 X83.584 Y58.346 E13.42865
G1 X83.858 Y57.627 E13.46703
G1 X84.205 Y56.941 E13.50539
G1 X84.621 Y56.294 E13.54376
G0 F3600 X85.019 Y56.428
G1 F1800 X85.677 Y55.667 E13.59395
G1 X85.794 Y55.55 E13.60221
G1 X86.351 Y55.05 E13.63955
G1 X86.957 Y54.613 E13.67683
G1 X87.607 Y54.242 E13.71417
G1 X88.293 Y53.943 E13.7515
G1 X89.007 Y53.719 E13.78883
G1 X89.74 Y53.572 E13.82613
G1 X90.744 Y53.5 E13.87635
G1 X107.51 Y53.5 E14.71281
G1 X108.257 Y53.54 E14.75013
G1 X108.543 Y53.586 E14.76458
G1 X108.613 Y53.572 E14.76814
G1 X109.617 Y53.5 E14.81836
G1 X126.383 Y53.5 E15.65482
G1 X127.13 Y53.54 E15.69214
G1 X127.868 Y53.659 E15.72944
G1 X128.59 Y53.857 E15.76679
G1 X129.286 Y54.13 E15.80409
G1 X129.949 Y54.477 E15.84142
G1 X130.572 Y54.892 E15.87877
G1 X131.333 Y55.55 E15.92896
G1 X131.45 Y55.667 E15.93721
G1 X131.95 Y56.224 E15.97456
G1 X132.387 Y56.83 E16.01183
G1 X132.758 Y57.48 E16.04917
G1 X133.057 Y58.166 E16.0865
G1 X133.281 Y58.88 E16.12384
G1 X133.428 Y59.613 E16.16113
G1 X133.499 Y60.727 E16.21682
G1 X133.469 Y62.641 E16.31233
G1 X133.417 Y63.387 E16.34963
G1 X133.286 Y64.123 E16.38693
G1 X133.078 Y64.842 E16.42427
G1 X132.793 Y65.534 E16.46161
G1 X132.437 Y66.191 E16.49889
G1 X132.012 Y66.807 E16.53623
G1 X131.413 Y67.488 E16.58148
G1 X116.402 Y82.457 E17.6391
G1 X115.845 Y82.956 E17.67641
G1 X115.237 Y83.393 E17.71377
G1 X114.587 Y83.762 E17.75106
G1 X113.901 Y84.06 E17.78837
G1 X113.187 Y84.283 E17.82569
G1 X112.453 Y84.429 E17.86303
G1 X111.459 Y84.5 E17.91274
G1 X109.617 Y84.5 E18.00464
G1 X108.87 Y84.46 E18.04196
G1 X108.584 Y84.414 E18.05642
G1 X108.514 Y84.428 E18.05998
G1 X107.4 Y84.499 E18.11567
G1 X105.486 Y84.469 E18.21117
G1 X104.74 Y84.417 E18.24848
G1 X104.004 Y84.286 E18.28577
G1 X103.285 Y84.078 E18.32312
G1 X102.593 Y83.793 E18.36045
G1 X101.936 Y83.437 E18.39773
G1 X101.32 Y83.012 E18.43507
G1 X100.639 Y82.413 E18.48032
G1 X85.67 Y67.402 E19.53795
G1 X85.171 Y66.845 E19.57525
G1 X84.734 Y66.237 E19.61261
G1 X84.365 Y65.587 E19.6499
G1 X84.067 Y64.901 E19.68721
G1 X83.844 Y64.187 E19.72453
G1 X83.698 Y63.453 E19.76187
G1 X83.627 Y62.459 E19.81159
G1 X83.627 Y60.617 E19.90348
G1 X83.667 Y59.87 E19.94081
G1 X83.786 Y59.132 E19.9781
G1 X83.984 Y58.41 E20.01545
G1 X84.257 Y57.714 E20.05275
G1 X84.604 Y57.051 E20.09008
G1 X85.019 Y56.428 E20.12743
G0 F3600 X85.416 Y56.567
G1 F1800 X85.96 Y55.95 E20.16847
G1 X86.077 Y55.833 E20.17672
G1 X86.618 Y55.349 E20.21294
G1 X87.209 Y54.926 E20.2492
G1 X87.843 Y54.572 E20.28543
G1 X88.512 Y54.289 E20.32167
G1 X89.208 Y54.081 E20.35791
G1 X89.923 Y53.951 E20.39416
G1 X90.744 Y53.9 E20.4352
G1 X107.51 Y53.9 E21.27166
G1 X108.235 Y53.94 E21.30789
G1 X108.56 Y53.994 E21.32432
G1 X108.796 Y53.951 E21.33629
G1 X109.617 Y53.9 E21.37733
G1 X126.383 Y53.9 E22.21379
G1 X127.108 Y53.94 E22.25001
G1 X127.825 Y54.059 E22.28627
G1 X128.524 Y54.257 E22.32252
G1 X129.197 Y54.53 E22.35875
G1 X129.836 Y54.875 E22.39498
G1 X130.433 Y55.289 E22.43123
G1 X131.05 Y55.833 E22.47227
G1 X131.167 Y55.95 E22.48052
G1 X131.651 Y56.491 E22.51674
G1 X132.074 Y57.082 E22.553
G1 X132.428 Y57.716 E22.58922
G1 X132.711 Y58.385 E22.62546
G1 X132.919 Y59.081 E22.6617
G1 X133.049 Y59.796 E22.69796
G1 X133.099 Y60.72 E22.74413
G1 X133.069 Y62.634 E22.83963
G1 X133.018 Y63.359 E22.87589
G1 X132.887 Y64.073 E22.9121
G1 X132.679 Y64.769 E22.94835
G1 X132.395 Y65.438 E22.9846
G1 X132.04 Y66.072 E23.02086
G1 X131.617 Y66.662 E23.05707
G1 X131.13 Y67.204 E23.09343
G1 X116.119 Y82.173 E24.15105
G1 X115.578 Y82.657 E24.18727
G1 X114.986 Y83.079 E24.22354
G1 X114.352 Y83.432 E24.25974
G1 X113.682 Y83.714 E24.29601
G1 X112.986 Y83.921 E24.33224
G1 X112.271 Y84.05 E24.36848
G1 X111.459 Y84.1 E24.40907
G1 X109.617 Y84.1 E24.50097
G1 X108.892 Y84.06 E24.53719
G1 X108.567 Y84.006 E24.55363
G1 X108.331 Y84.049 E24.5656
G1 X107.407 Y84.099 E24.61176
G1 X105.493 Y84.069 E24.70727
G1 X104.768 Y84.018 E24.74353
G1 X104.054 Y83.887 E24.77974
G1 X103.358 Y83.679 E24.81598
G1 X102.689 Y83.395 E24.85224
G1 X102.055 Y83.04 E24.88849
G1 X101.465 Y82.617 E24.92471
G1 X100.923 Y82.13 E24.96107
G1 X85.954 Y67.119 E26.01869
G1 X85.47 Y66.578 E26.05491
G1 X85.048 Y65.986 E26.09118
G1 X84.695 Y65.352 E26.12738
G1 X84.413 Y64.682 E26.16365
G1 X84.206 Y63.986 E26.19987
G1 X84.077 Y63.271 E26.23612
G1 X84.027 Y62.459 E26.27671
G1 X84.027 Y60.617 E26.36861
G1 X84.067 Y59.892 E26.40483
G1 X84.186 Y59.175 E26.44109
G1 X84.384 Y58.476 E26.47734
G1 X84.657 Y57.803 E26.51357
G1 X85.002 Y57.164 E26.5498
G1 X85.416 Y56.567 E26.58605
G0 F3600 X85.401 Y57.282
G1 F1800 X85.812 Y56.711 E26.62115
G1 X86.243 Y56.233 E26.65326
G1 X86.36 Y56.116 E26.66151
G1 X86.885 Y55.647 E26.69663
G1 X87.46 Y55.241 E26.73175
G1 X88.078 Y54.903 E26.76689
G1 X88.729 Y54.636 E26.802
G1 X89.407 Y54.446 E26.83713
G1 X90.102 Y54.333 E26.87225
G1 X90.744 Y54.3 E26.90433
G1 X107.51 Y54.3 E27.74079
G1 X108.213 Y54.34 E27.77591
G1 X108.563 Y54.4 E27.79363
G1 X108.975 Y54.333 E27.81446
G1 X109.617 Y54.3 E27.84653
G1 X126.383 Y54.3 E28.68299
G1 X127.086 Y54.34 E28.71812
G1 X127.78 Y54.459 E28.75325
G1 X128.455 Y54.657 E28.78834
G1 X129.104 Y54.929 E28.82345
G1 X129.718 Y55.274 E28.85858
G1 X130.289 Y55.685 E28.89368
G1 X130.767 Y56.116 E28.92579
G1 X130.884 Y56.233 E28.93405
G1 X131.353 Y56.758 E28.96917
G1 X131.759 Y57.333 E29.00429
G1 X132.097 Y57.951 E29.03943
G1 X132.364 Y58.602 E29.07453
G1 X132.554 Y59.28 E29.10966
G1 X132.667 Y59.975 E29.14479
G1 X132.699 Y60.714 E29.1817
G1 X132.669 Y62.628 E29.2772
G1 X132.618 Y63.33 E29.31231
G1 X132.488 Y64.022 E29.34744
G1 X132.28 Y64.695 E29.38258
G1 X131.997 Y65.339 E29.41768
G1 X131.643 Y65.948 E29.45282
G1 X131.223 Y66.512 E29.4879
G1 X130.848 Y66.921 E29.51559
G1 X115.837 Y81.89 E30.57321
G1 X115.311 Y82.358 E30.60834
G1 X114.735 Y82.764 E30.6435
G1 X114.118 Y83.101 E30.67857
G1 X113.466 Y83.366 E30.71369
G1 X112.788 Y83.556 E30.74881
G1 X112.092 Y83.668 E30.78398
G1 X111.459 Y83.7 E30.81561
G1 X109.617 Y83.7 E30.9075
G1 X108.914 Y83.66 E30.94263
G1 X108.564 Y83.6 E30.96035
G1 X108.152 Y83.667 E30.98117
G1 X107.413 Y83.699 E31.01808
G1 X105.499 Y83.669 E31.11358
G1 X104.797 Y83.618 E31.14869
G1 X104.105 Y83.488 E31.18382
G1 X103.432 Y83.28 E31.21896
G1 X102.788 Y82.997 E31.25406
G1 X102.179 Y82.643 E31.2892
G1 X101.615 Y82.223 E31.32429
G1 X101.206 Y81.848 E31.35197
G1 X86.237 Y66.837 E32.4096
G1 X85.769 Y66.311 E32.44472
G1 X85.363 Y65.735 E32.47988
G1 X85.026 Y65.118 E32.51495
G1 X84.761 Y64.466 E32.55007
G1 X84.571 Y63.788 E32.5852
G1 X84.459 Y63.092 E32.62037
G1 X84.427 Y62.459 E32.65199
G1 X84.427 Y60.617 E32.74388
G1 X84.467 Y59.914 E32.77901
G1 X84.586 Y59.22 E32.81414
G1 X84.784 Y58.545 E32.84924
G1 X85.056 Y57.896 E32.88435
G1 X85.401 Y57.282 E32.91948
G0 F3600 X85.799 Y57.403
G1 F1800 X86.209 Y56.859 E32.95347
G1 X86.526 Y56.516 E32.97677
G1 X86.643 Y56.399 E32.98502
G1 X87.152 Y55.946 E33.01902
G1 X87.71 Y55.557 E33.05295
G1 X88.31 Y55.235 E33.08693
G1 X88.944 Y54.986 E33.12091
G1 X89.603 Y54.813 E33.1549
G1 X90.277 Y54.719 E33.18885
G1 X90.744 Y54.7 E33.21217
G1 X107.51 Y54.7 E34.04863
G1 X108.19 Y54.74 E34.08261
G1 X108.546 Y54.803 E34.10065
G1 X109.15 Y54.719 E34.13107
G1 X109.617 Y54.7 E34.15439
G1 X126.383 Y54.7 E34.99085
G1 X127.063 Y54.74 E35.02484
G1 X127.733 Y54.859 E35.05878
G1 X128.385 Y55.056 E35.09277
G1 X129.009 Y55.328 E35.12673
G1 X129.597 Y55.672 E35.16071
G1 X130.141 Y56.082 E35.1947
G1 X130.484 Y56.399 E35.218
G1 X130.601 Y56.516 E35.22625
G1 X131.054 Y57.025 E35.26025
G1 X131.443 Y57.583 E35.29418
G1 X131.765 Y58.183 E35.32816
G1 X132.014 Y58.817 E35.36214
G1 X132.187 Y59.476 E35.39613
G1 X132.281 Y60.15 E35.43008
G1 X132.299 Y60.708 E35.45794
G1 X132.269 Y62.622 E35.55344
G1 X132.219 Y63.301 E35.5874
G1 X132.089 Y63.969 E35.62136
G1 X131.882 Y64.618 E35.65534
G1 X131.6 Y65.238 E35.68932
G1 X131.247 Y65.82 E35.72328
G1 X130.829 Y66.357 E35.75723
G1 X130.565 Y66.638 E35.77647
G1 X115.554 Y81.607 E36.8341
G1 X115.045 Y82.059 E36.86806
G1 X114.486 Y82.447 E36.90201
G1 X113.885 Y82.768 E36.936
G1 X113.251 Y83.016 E36.96996
G1 X112.592 Y83.188 E37.00394
G1 X111.918 Y83.282 E37.03789
G1 X111.459 Y83.3 E37.06081
G1 X109.617 Y83.3 E37.15271
G1 X108.937 Y83.26 E37.18669
G1 X108.581 Y83.197 E37.20473
G1 X107.977 Y83.281 E37.23515
G1 X107.419 Y83.299 E37.26301
G1 X105.505 Y83.269 E37.35851
G1 X104.826 Y83.219 E37.39247
G1 X104.158 Y83.089 E37.42643
G1 X103.509 Y82.882 E37.46041
G1 X102.889 Y82.6 E37.49439
G1 X102.307 Y82.247 E37.52835
G1 X101.77 Y81.829 E37.5623
G1 X101.489 Y81.565 E37.58154
G1 X86.52 Y66.554 E38.63917
G1 X86.068 Y66.045 E38.67313
G1 X85.68 Y65.486 E38.70708
G1 X85.359 Y64.885 E38.74107
G1 X85.111 Y64.251 E38.77503
G1 X84.939 Y63.592 E38.80901
G1 X84.845 Y62.918 E38.84296
G1 X84.827 Y62.459 E38.86588
G1 X84.827 Y60.617 E38.95778
G1 X84.867 Y59.937 E38.99176
G1 X84.986 Y59.267 E39.02571
G1 X85.183 Y58.615 E39.05969
G1 X85.455 Y57.991 E39.09365
G1 X85.799 Y57.403 E39.12764
G0 F3600 X86.197 Y57.529
G1 F1800 X86.809 Y56.799 E39.17517
G1 X86.926 Y56.682 E39.18342
G1 X87.418 Y56.246 E39.21622
G1 X87.959 Y55.874 E39.24897
G1 X88.541 Y55.57 E39.28173
G1 X89.156 Y55.339 E39.31451
G1 X89.795 Y55.184 E39.34731
G1 X90.744 Y55.1 E39.39484
G1 X107.51 Y55.1 E40.2313
G1 X108.166 Y55.14 E40.26409
G1 X108.554 Y55.212 E40.28378
G1 X108.668 Y55.184 E40.28964
G1 X109.617 Y55.1 E40.33717
G1 X126.383 Y55.1 E41.17363
G1 X127.039 Y55.14 E41.20641
G1 X127.685 Y55.259 E41.23919
G1 X128.312 Y55.456 E41.27197
G1 X128.91 Y55.728 E41.30475
G1 X129.471 Y56.07 E41.33753
G1 X130.201 Y56.682 E41.38505
G1 X130.318 Y56.799 E41.39331
G1 X130.754 Y57.291 E41.42611
G1 X131.126 Y57.832 E41.45886
G1 X131.43 Y58.414 E41.49162
G1 X131.661 Y59.029 E41.5244
G1 X131.816 Y59.668 E41.5572
G1 X131.892 Y60.32 E41.58995
G1 X131.899 Y60.702 E41.60901
G1 X131.869 Y62.616 E41.70451
G1 X131.819 Y63.271 E41.73728
G1 X131.69 Y63.915 E41.77005
G1 X131.483 Y64.538 E41.8028
G1 X131.202 Y65.132 E41.83559
G1 X130.851 Y65.688 E41.86839
G1 X130.283 Y66.355 E41.9121
G1 X115.272 Y81.324 E42.96973
G1 X114.779 Y81.758 E43.0025
G1 X114.238 Y82.13 E43.03525
G1 X113.655 Y82.433 E43.06803
G1 X113.04 Y82.663 E43.10079
G1 X112.401 Y82.817 E43.13358
G1 X111.459 Y82.9 E43.18076
G1 X109.617 Y82.9 E43.27266
G1 X108.961 Y82.86 E43.30545
G1 X108.573 Y82.788 E43.32513
G1 X108.459 Y82.816 E43.33099
G1 X107.807 Y82.892 E43.36374
G1 X107.425 Y82.899 E43.3828
G1 X105.511 Y82.869 E43.4783
G1 X104.856 Y82.819 E43.51108
G1 X104.212 Y82.69 E43.54384
G1 X103.589 Y82.483 E43.5766
G1 X102.995 Y82.202 E43.60938
G1 X102.439 Y81.851 E43.64218
G1 X101.772 Y81.283 E43.68589
G1 X86.803 Y66.272 E44.74352
G1 X86.369 Y65.779 E44.77629
G1 X85.997 Y65.238 E44.80904
G1 X85.694 Y64.655 E44.84182
G1 X85.464 Y64.04 E44.87458
G1 X85.31 Y63.401 E44.90737
G1 X85.227 Y62.459 E44.95455
G1 X85.227 Y60.617 E45.04645
G1 X85.267 Y59.961 E45.07924
G1 X85.386 Y59.315 E45.11201
G1 X85.583 Y58.688 E45.1448
G1 X85.855 Y58.09 E45.17757
