;FLAVOR:Repetier
;TIME:2818
;Generated with Cura_SteamEngine 3.5.1
M190 S80
M104 S240
M109 S240
M82 ;absolute extrusion mode
G21 ;metric values
G90 ;absolute positioning
M82 ;set extruder to absolute mode
M107 ;start with the fan off
G28 X0 Y0 ;move X/Y to min endstops
G28 Z0 ;move Z to min endstops
G1 Z15.0 F9000 ;move the platform down 15mm
G92 E0 ;zero the extruded length
G1 F200 E3 ;extrude 3mm of feed stock
G92 E0 ;zero the extruded length again
G1 F9000
;Put printing message on LCD screen
M117 Printing...
G92 E0
;LAYER_COUNT:79
;LAYER:0
M107
G0 F3600 X83.772 Y39.538 Z0.3
;TYPE:SKIRT
G1 F1800 X84.356 Y38.359 E0.06564
G1 X84.86 Y37.489 E0.1158
G1 X85.584 Y36.405 E0.18084
G1 X86.214 Y35.585 E0.23243
G1 X87.077 Y34.604 E0.29761
G1 X87.787 Y33.895 E0.34767
G1 X88.771 Y33.031 E0.413
G1 X89.597 Y32.397 E0.46495
G1 X90.684 Y31.674 E0.53008
G1 X91.551 Y31.175 E0.57999
G1 X92.73 Y30.593 E0.64559
G1 X93.689 Y30.196 E0.69737
G1 X94.922 Y29.78 E0.76229
G1 X95.894 Y29.521 E0.81247
G1 X97.176 Y29.266 E0.87769
G1 X98.193 Y29.132 E0.92886
G1 X99.502 Y29.047 E0.99431
G1 X100.518 Y29.048 E1.045
G1 X101.813 Y29.133 E1.10974
G1 X102.824 Y29.266 E1.16062
G1 X104.106 Y29.521 E1.22583
G1 X105.078 Y29.78 E1.27601
G1 X106.311 Y30.196 E1.34094
G1 X107.27 Y30.593 E1.39272
G1 X108.447 Y31.174 E1.4582
G1 X109.312 Y31.673 E1.50802
G1 X110.401 Y32.397 E1.57327
G1 X111.229 Y33.03 E1.62526
G1 X112.211 Y33.892 E1.69045
G1 X112.921 Y34.601 E1.74051
G1 X113.786 Y35.584 E1.80584
G1 X114.415 Y36.403 E1.85736
G1 X115.138 Y37.485 E1.92228
G1 X115.641 Y38.354 E1.97238
G1 X116.225 Y39.532 E2.03797
G1 X116.624 Y40.493 E2.08988
G1 X117.043 Y41.729 E2.155
G1 X117.305 Y42.706 E2.20546
G1 X117.561 Y43.988 E2.27068
G1 X117.695 Y44.997 E2.32146
G1 X117.782 Y46.304 E2.38681
G1 X117.783 Y47.327 E2.43785
G1 X117.698 Y48.637 E2.50335
G1 X117.564 Y49.654 E2.55452
G1 X117.309 Y50.936 E2.61974
G1 X117.05 Y51.908 E2.66992
G1 X116.634 Y53.141 E2.73484
G1 X116.237 Y54.1 E2.78662
G1 X115.656 Y55.277 E2.85211
G1 X115.157 Y56.142 E2.90193
G1 X114.433 Y57.231 E2.96717
G1 X113.8 Y58.059 E3.01917
G1 X112.938 Y59.041 E3.08436
G1 X112.8 Y59.179 E3.0941
G1 X112.8 Y66.705 E3.46957
G1 X112.842 Y66.814 E3.4754
G1 X113.171 Y67.754 E3.52508
G1 X113.394 Y68.512 E3.5645
G1 X113.497 Y69.013 E3.59002
G1 X113.665 Y69.993 E3.63963
G1 X113.759 Y70.777 E3.67902
G1 X113.777 Y71.28 E3.70413
G1 X113.781 Y72.276 E3.75382
G1 X113.744 Y73.065 E3.79323
G1 X113.678 Y73.57 E3.81864
G1 X113.517 Y74.551 E3.86824
G1 X113.35 Y75.323 E3.90764
G1 X113.202 Y75.807 E3.93289
G1 X112.883 Y76.742 E3.98218
G1 X112.591 Y77.475 E4.02154
G1 X112.375 Y77.91 E4.04577
G1 X111.903 Y78.79 E4.09559
G1 X111.495 Y79.466 E4.13499
G1 X111.191 Y79.885 E4.16081
G1 X110.585 Y80.666 E4.21013
G1 X110.07 Y81.264 E4.2495
G1 X109.708 Y81.62 E4.27483
G1 X108.97 Y82.3 E4.3249
G1 X108.363 Y82.805 E4.36429
G1 X107.953 Y83.093 E4.38929
G1 X107.124 Y83.635 E4.4387
G1 X106.442 Y84.033 E4.4781
G1 X105.985 Y84.251 E4.50336
G1 X105.074 Y84.65 E4.55298
G1 X104.336 Y84.93 E4.59236
G1 X103.866 Y85.065 E4.61676
G1 X102.902 Y85.31 E4.66638
G1 X102.128 Y85.465 E4.70576
G1 X101.61 Y85.525 E4.73178
G1 X100.621 Y85.605 E4.78128
G1 X99.832 Y85.628 E4.82066
G1 X99.34 Y85.603 E4.84524
G1 X98.351 Y85.52 E4.89475
G1 X97.568 Y85.414 E4.93417
G1 X97.06 Y85.301 E4.96014
G1 X96.096 Y85.053 E5.0098
G1 X95.342 Y84.818 E5.0492
G1 X94.894 Y84.637 E5.0733
G1 X93.984 Y84.236 E5.12292
G1 X93.278 Y83.881 E5.16234
G1 X92.842 Y83.615 E5.18782
G1 X92.015 Y83.071 E5.23721
G1 X91.378 Y82.604 E5.27661
G1 X91 Y82.275 E5.30161
G1 X90.264 Y81.593 E5.35167
G1 X89.713 Y81.028 E5.39105
G1 X89.39 Y80.636 E5.41639
G1 X88.786 Y79.853 E5.46572
G1 X88.336 Y79.204 E5.50512
G1 X88.08 Y78.76 E5.53069
G1 X87.61 Y77.879 E5.58051
G1 X87.274 Y77.165 E5.61988
G1 X87.102 Y76.703 E5.64447
G1 X86.786 Y75.767 E5.69376
G1 X86.571 Y75.007 E5.73317
G1 X86.476 Y74.515 E5.75816
G1 X86.318 Y73.536 E5.80764
G1 X86.231 Y72.751 E5.84704
G1 X86.218 Y72.238 E5.87264
G1 X86.225 Y71.239 E5.92249
G1 X86.271 Y70.451 E5.96187
G1 X86.341 Y69.954 E5.98691
G1 X86.511 Y68.979 E6.03628
G1 X86.686 Y68.209 E6.07568
G1 X86.838 Y67.729 E6.1008
G1 X87.17 Y66.786 E6.15068
G1 X87.2 Y66.713 E6.15461
G1 X87.2 Y59.179 E6.53049
G1 X87.062 Y59.041 E6.54022
G1 X86.2 Y58.059 E6.60541
G1 X85.567 Y57.231 E6.65741
G1 X84.843 Y56.142 E6.72265
G1 X84.344 Y55.277 E6.77247
G1 X83.763 Y54.1 E6.83796
G1 X83.366 Y53.141 E6.88974
G1 X82.95 Y51.908 E6.95466
G1 X82.691 Y50.936 E7.00485
G1 X82.436 Y49.654 E7.07006
G1 X82.302 Y48.638 E7.12119
G1 X82.217 Y47.33 E7.18658
G1 X82.218 Y46.307 E7.23762
G1 X82.305 Y44.998 E7.30307
G1 X82.439 Y43.988 E7.3539
G1 X82.695 Y42.706 E7.41912
G1 X82.957 Y41.729 E7.46959
G1 X83.375 Y40.496 E7.53454
G1 X83.772 Y39.538 E7.58628
G0 F3600 X84.131 Y39.715
G1 F1800 X84.715 Y38.536 E7.65192
G1 X85.192 Y37.711 E7.69946
G1 X85.916 Y36.627 E7.76449
G1 X86.514 Y35.849 E7.81345
G1 X87.377 Y34.868 E7.87864
G1 X88.05 Y34.195 E7.92612
G1 X89.034 Y33.331 E7.99145
G1 X89.819 Y32.73 E8.04077
G1 X90.906 Y32.007 E8.1059
G1 X91.728 Y31.533 E8.15324
G1 X92.907 Y30.951 E8.21884
G1 X93.817 Y30.575 E8.26796
G1 X95.05 Y30.159 E8.33289
G1 X95.972 Y29.913 E8.38049
G1 X97.254 Y29.658 E8.44571
G1 X98.218 Y29.532 E8.49421
G1 X99.527 Y29.447 E8.55965
G1 X100.492 Y29.447 E8.6078
G1 X101.787 Y29.532 E8.67254
G1 X102.746 Y29.658 E8.7208
G1 X104.028 Y29.913 E8.78601
G1 X104.95 Y30.159 E8.83362
G1 X106.183 Y30.575 E8.89854
G1 X107.093 Y30.951 E8.94766
G1 X108.27 Y31.532 E9.01315
G1 X109.091 Y32.006 E9.06045
G1 X110.18 Y32.73 E9.12569
G1 X110.965 Y33.331 E9.17501
G1 X111.947 Y34.193 E9.2402
G1 X112.62 Y34.865 E9.28765
G1 X113.485 Y35.848 E9.35298
G1 X114.083 Y36.626 E9.40193
G1 X114.806 Y37.708 E9.46685
G1 X115.283 Y38.532 E9.51436
G1 X115.867 Y39.71 E9.57995
G1 X116.245 Y40.621 E9.62916
G1 X116.664 Y41.857 E9.69427
G1 X116.913 Y42.784 E9.74216
G1 X117.169 Y44.066 E9.80738
G1 X117.296 Y45.024 E9.85559
G1 X117.383 Y46.331 E9.92094
G1 X117.383 Y47.301 E9.96934
G1 X117.298 Y48.611 E10.03483
G1 X117.172 Y49.576 E10.08338
G1 X116.917 Y50.858 E10.1486
G1 X116.671 Y51.78 E10.1962
G1 X116.255 Y53.013 E10.26112
G1 X115.879 Y53.923 E10.31025
G1 X115.298 Y55.1 E10.37573
G1 X114.824 Y55.921 E10.42303
G1 X114.1 Y57.01 E10.48827
G1 X113.499 Y57.795 E10.53759
G1 X112.637 Y58.777 E10.60278
G1 X112.4 Y59.014 E10.61951
G1 X112.4 Y66.777 E11.0068
G1 X112.465 Y66.946 E11.01584
G1 X112.794 Y67.886 E11.06552
G1 X113.01 Y68.625 E11.10393
G1 X113.103 Y69.081 E11.12715
G1 X113.271 Y70.061 E11.17676
G1 X113.361 Y70.824 E11.21509
G1 X113.377 Y71.281 E11.2379
G1 X113.381 Y72.277 E11.28759
G1 X113.344 Y73.046 E11.326
G1 X113.283 Y73.505 E11.3491
G1 X113.122 Y74.486 E11.3987
G1 X112.958 Y75.238 E11.4371
G1 X112.824 Y75.677 E11.46
G1 X112.505 Y76.612 E11.50929
G1 X112.219 Y77.327 E11.54771
G1 X112.022 Y77.721 E11.56968
G1 X111.55 Y78.601 E11.6195
G1 X111.152 Y79.259 E11.65787
G1 X110.875 Y79.639 E11.68133
G1 X110.269 Y80.42 E11.73065
G1 X109.767 Y81.003 E11.76903
G1 X109.437 Y81.326 E11.79207
G1 X108.699 Y82.006 E11.84213
G1 X108.107 Y82.497 E11.88051
G1 X107.734 Y82.758 E11.90322
G1 X106.905 Y83.3 E11.95263
G1 X106.241 Y83.687 E11.99098
G1 X105.825 Y83.884 E12.01394
G1 X104.914 Y84.283 E12.06356
G1 X104.194 Y84.555 E12.10196
G1 X103.768 Y84.677 E12.12406
G1 X102.804 Y84.922 E12.17369
G1 X102.049 Y85.072 E12.21209
G1 X101.578 Y85.126 E12.23574
G1 X100.589 Y85.206 E12.28524
G1 X99.82 Y85.228 E12.32363
G1 X99.373 Y85.204 E12.34596
G1 X98.384 Y85.121 E12.39547
G1 X97.622 Y85.017 E12.43384
G1 X97.159 Y84.914 E12.45751
G1 X96.195 Y84.666 E12.50717
G1 X95.461 Y84.436 E12.54554
G1 X95.055 Y84.271 E12.56741
G1 X94.145 Y83.87 E12.61702
G1 X93.458 Y83.523 E12.65542
G1 X93.062 Y83.28 E12.6786
G1 X92.235 Y82.736 E12.72798
G1 X91.615 Y82.281 E12.76635
G1 X91.272 Y81.982 E12.78905
G1 X90.536 Y81.3 E12.83911
G1 X90 Y80.749 E12.87746
G1 X89.707 Y80.392 E12.9005
G1 X89.103 Y79.609 E12.94984
G1 X88.665 Y78.976 E12.98824
G1 X88.433 Y78.572 E13.01149
G1 X87.963 Y77.691 E13.0613
G1 X87.637 Y76.995 E13.09965
G1 X87.481 Y76.575 E13.122
G1 X87.165 Y75.639 E13.17129
G1 X86.957 Y74.898 E13.20968
G1 X86.871 Y74.451 E13.23239
G1 X86.713 Y73.472 E13.28187
G1 X86.63 Y72.707 E13.32026
G1 X86.618 Y72.241 E13.34351
G1 X86.625 Y71.242 E13.39336
G1 X86.671 Y70.474 E13.43174
G1 X86.735 Y70.023 E13.45447
G1 X86.905 Y69.048 E13.50384
G1 X87.076 Y68.298 E13.54222
G1 X87.215 Y67.862 E13.56505
G1 X87.547 Y66.919 E13.61493
G1 X87.6 Y66.79 E13.62189
G1 X87.6 Y59.014 E14.00983
G1 X87.363 Y58.777 E14.02655
G1 X86.501 Y57.795 E14.09174
G1 X85.9 Y57.01 E14.14107
G1 X85.176 Y55.921 E14.20631
G1 X84.702 Y55.1 E14.25361
G1 X84.121 Y53.923 E14.31909
G1 X83.745 Y53.013 E14.36821
G1 X83.329 Y51.78 E14.43314
G1 X83.083 Y50.858 E14.48074
G1 X82.828 Y49.576 E14.54596
G1 X82.702 Y48.612 E14.59446
G1 X82.617 Y47.304 E14.65985
G1 X82.617 Y46.333 E14.7083
G1 X82.704 Y45.024 E14.77375
G1 X82.831 Y44.066 E14.82196
G1 X83.087 Y42.784 E14.88718
G1 X83.336 Y41.857 E14.93507
G1 X83.754 Y40.624 E15.00002
G1 X84.131 Y39.715 E15.04912
G0 F3600 X84.489 Y39.893
G1 F1800 X85.073 Y38.714 E15.11476
G1 X85.525 Y37.933 E15.15978
G1 X86.249 Y36.849 E15.22481
G1 X86.814 Y36.113 E15.2711
G1 X87.677 Y35.132 E15.33629
G1 X88.314 Y34.496 E15.3812
G1 X89.298 Y33.632 E15.44653
G1 X90.04 Y33.064 E15.49315
G1 X91.127 Y32.341 E15.55828
G1 X91.905 Y31.892 E15.60309
G1 X93.084 Y31.31 E15.66869
G1 X93.945 Y30.954 E15.71517
G1 X95.178 Y30.538 E15.78009
G1 X96.05 Y30.305 E15.82512
G1 X97.332 Y30.05 E15.89034
G1 X98.244 Y29.931 E15.93622
G1 X99.553 Y29.846 E16.00167
G1 X100.465 Y29.846 E16.04717
G1 X101.76 Y29.931 E16.11191
G1 X102.668 Y30.05 E16.1576
G1 X103.95 Y30.305 E16.22281
G1 X104.822 Y30.538 E16.26784
G1 X106.055 Y30.954 E16.33276
G1 X106.915 Y31.31 E16.3792
G1 X108.092 Y31.891 E16.44469
G1 X108.869 Y32.339 E16.48943
G1 X109.958 Y33.063 E16.55467
G1 X110.701 Y33.631 E16.60133
G1 X111.683 Y34.493 E16.66652
G1 X112.32 Y35.13 E16.71147
G1 X113.185 Y36.113 E16.77679
G1 X113.75 Y36.848 E16.82304
G1 X114.473 Y37.93 E16.88797
G1 X114.925 Y38.71 E16.93294
G1 X115.509 Y39.888 E16.99854
G1 X115.866 Y40.75 E17.04509
G1 X116.285 Y41.986 E17.1102
G1 X116.52 Y42.862 E17.15545
G1 X116.776 Y44.144 E17.22067
G1 X116.897 Y45.05 E17.26627
G1 X116.984 Y46.357 E17.33162
G1 X116.984 Y47.275 E17.37742
G1 X116.899 Y48.585 E17.44292
G1 X116.78 Y49.498 E17.48885
G1 X116.525 Y50.78 E17.55406
G1 X116.292 Y51.652 E17.59909
G1 X115.876 Y52.885 E17.66402
G1 X115.52 Y53.745 E17.71045
G1 X114.939 Y54.922 E17.77594
G1 X114.491 Y55.699 E17.82068
G1 X113.767 Y56.788 E17.88593
G1 X113.199 Y57.531 E17.93258
G1 X112.337 Y58.513 E17.99777
G1 X112 Y58.85 E18.02155
G1 X112 Y66.85 E18.42067
G1 X112.087 Y67.079 E18.43289
G1 X112.416 Y68.019 E18.48258
G1 X112.625 Y68.737 E18.51989
G1 X112.708 Y69.148 E18.54081
G1 X112.876 Y70.128 E18.59041
G1 X112.963 Y70.871 E18.62774
G1 X112.977 Y71.283 E18.6483
G1 X112.981 Y72.279 E18.69799
G1 X112.944 Y73.026 E18.73531
G1 X112.889 Y73.441 E18.75619
G1 X112.728 Y74.422 E18.80579
G1 X112.567 Y75.152 E18.84308
G1 X112.445 Y75.548 E18.86376
G1 X112.126 Y76.483 E18.91304
G1 X111.847 Y77.177 E18.95036
G1 X111.67 Y77.532 E18.97015
G1 X111.198 Y78.412 E19.01997
G1 X110.809 Y79.051 E19.05729
G1 X110.559 Y79.394 E19.07847
G1 X109.953 Y80.175 E19.12779
G1 X109.464 Y80.741 E19.1651
G1 X109.166 Y81.032 E19.18588
G1 X108.428 Y81.712 E19.23595
G1 X107.852 Y82.189 E19.27326
G1 X107.516 Y82.423 E19.29369
G1 X106.687 Y82.965 E19.3431
G1 X106.039 Y83.34 E19.38046
G1 X105.664 Y83.518 E19.40116
G1 X104.753 Y83.917 E19.45078
G1 X104.053 Y84.18 E19.48809
G1 X103.669 Y84.289 E19.508
G1 X102.705 Y84.534 E19.55763
G1 X101.971 Y84.68 E19.59496
G1 X101.545 Y84.727 E19.61635
G1 X100.556 Y84.807 E19.66585
G1 X99.809 Y84.828 E19.70313
G1 X99.407 Y84.805 E19.72322
G1 X98.418 Y84.722 E19.77274
G1 X97.677 Y84.62 E19.81005
G1 X97.259 Y84.526 E19.83143
G1 X96.295 Y84.278 E19.88109
G1 X95.581 Y84.053 E19.91844
G1 X95.216 Y83.905 E19.93809
G1 X94.306 Y83.504 E19.9877
G1 X93.639 Y83.166 E20.025
G1 X93.282 Y82.946 E20.04593
G1 X92.455 Y82.402 E20.09531
G1 X91.853 Y81.958 E20.13263
G1 X91.544 Y81.689 E20.15307
G1 X90.808 Y81.007 E20.20313
G1 X90.287 Y80.469 E20.24049
G1 X90.023 Y80.147 E20.26127
G1 X89.419 Y79.364 E20.3106
G1 X88.995 Y78.749 E20.34787
G1 X88.786 Y78.384 E20.36885
G1 X88.316 Y77.503 E20.41867
G1 X88 Y76.825 E20.45599
G1 X87.86 Y76.447 E20.4761
G1 X87.544 Y75.511 E20.52539
G1 X87.343 Y74.791 E20.56268
G1 X87.265 Y74.387 E20.58321
G1 X87.107 Y73.408 E20.63268
G1 X87.028 Y72.664 E20.67001
G1 X87.018 Y72.244 E20.69097
G1 X87.025 Y71.245 E20.74081
G1 X87.07 Y70.498 E20.77815
G1 X87.129 Y70.092 E20.79862
G1 X87.299 Y69.117 E20.84799
G1 X87.467 Y68.388 E20.88532
G1 X87.592 Y67.994 E20.90594
G1 X87.924 Y67.051 E20.95582
G1 X88 Y66.867 E20.96575
G1 X88 Y58.85 E21.36572
G1 X87.663 Y58.513 E21.38949
G1 X86.801 Y57.531 E21.45468
G1 X86.233 Y56.788 E21.50134
G1 X85.509 Y55.699 E21.56659
G1 X85.061 Y54.922 E21.61133
G1 X84.48 Y53.745 E21.67682
G1 X84.124 Y52.885 E21.72325
G1 X83.708 Y51.652 E21.78817
G1 X83.475 Y50.78 E21.83321
G1 X83.22 Y49.498 E21.89842
G1 X83.101 Y48.586 E21.9443
G1 X83.016 Y47.278 E22.0097
G1 X83.016 Y46.36 E22.0555
G1 X83.103 Y45.051 E22.12095
G1 X83.224 Y44.144 E22.1666
G1 X83.48 Y42.862 E22.23182
G1 X83.715 Y41.986 E22.27707
G1 X84.133 Y40.753 E22.34202
G1 X84.489 Y39.893 E22.38846
G0 F3600 X84.848 Y40.07
G1 F1800 X85.432 Y38.891 E22.4541
G1 X85.858 Y38.155 E22.49653
G1 X86.582 Y37.071 E22.56156
G1 X87.115 Y36.378 E22.60518
G1 X87.978 Y35.397 E22.67036
G1 X88.578 Y34.796 E22.71273
G1 X89.562 Y33.932 E22.77806
G1 X90.262 Y33.397 E22.82202
G1 X91.349 Y32.674 E22.88715
G1 X92.083 Y32.251 E22.92941
G1 X93.262 Y31.669 E22.99501
G1 X94.073 Y31.333 E23.03881
G1 X95.306 Y30.917 E23.10373
G1 X96.128 Y30.698 E23.14617
G1 X97.41 Y30.443 E23.21138
G1 X98.27 Y30.33 E23.25465
G1 X99.579 Y30.245 E23.3201
G1 X100.439 Y30.245 E23.363
G1 X101.734 Y30.33 E23.42775
G1 X102.59 Y30.443 E23.47083
G1 X103.872 Y30.698 E23.53604
G1 X104.694 Y30.917 E23.57848
G1 X105.927 Y31.333 E23.6434
G1 X106.738 Y31.669 E23.6872
G1 X107.915 Y32.25 E23.75268
G1 X108.648 Y32.672 E23.79488
G1 X109.737 Y33.396 E23.86012
G1 X110.437 Y33.932 E23.90411
G1 X111.419 Y34.794 E23.9693
G1 X112.02 Y35.394 E24.01166
G1 X112.885 Y36.377 E24.07699
G1 X113.418 Y37.07 E24.12061
G1 X114.141 Y38.152 E24.18553
G1 X114.566 Y38.887 E24.22789
G1 X115.15 Y40.065 E24.29349
G1 X115.488 Y40.878 E24.33741
G1 X115.907 Y42.114 E24.40252
G1 X116.128 Y42.941 E24.44523
G1 X116.384 Y44.223 E24.51045
G1 X116.497 Y45.077 E24.55343
G1 X116.584 Y46.384 E24.61878
G1 X116.585 Y47.249 E24.66194
G1 X116.5 Y48.559 E24.72743
G1 X116.387 Y49.42 E24.77075
G1 X116.132 Y50.702 E24.83597
G1 X115.913 Y51.524 E24.87841
G1 X115.497 Y52.757 E24.94333
G1 X115.161 Y53.568 E24.98712
G1 X114.58 Y54.745 E25.05261
G1 X114.158 Y55.478 E25.09481
G1 X113.434 Y56.567 E25.16005
G1 X112.898 Y57.267 E25.20403
G1 X112.036 Y58.249 E25.26922
G1 X111.6 Y58.685 E25.29998
G1 X111.6 Y66.965 E25.71308
G1 X111.709 Y67.211 E25.7265
G1 X112.038 Y68.151 E25.77619
G1 X112.24 Y68.848 E25.81239
G1 X112.314 Y69.216 E25.83112
G1 X112.482 Y70.196 E25.88072
G1 X112.565 Y70.917 E25.91693
G1 X112.577 Y71.284 E25.93525
G1 X112.581 Y72.28 E25.98494
G1 X112.544 Y73.006 E26.02121
G1 X112.494 Y73.376 E26.03984
G1 X112.333 Y74.357 E26.08943
G1 X112.176 Y75.066 E26.12566
G1 X112.066 Y75.419 E26.14411
G1 X111.747 Y76.354 E26.1934
G1 X111.317 Y77.343 E26.2472
G1 X110.845 Y78.223 E26.29702
G1 X110.467 Y78.843 E26.33325
G1 X110.243 Y79.149 E26.35217
G1 X109.637 Y79.93 E26.40148
G1 X109.161 Y80.478 E26.4377
G1 X108.895 Y80.738 E26.45626
G1 X108.157 Y81.418 E26.50632
G1 X107.597 Y81.88 E26.54254
G1 X107.297 Y82.088 E26.56075
G1 X106.468 Y82.63 E26.61017
G1 X105.839 Y82.994 E26.64642
G1 X105.504 Y83.152 E26.6649
G1 X104.593 Y83.551 E26.71452
G1 X103.571 Y83.902 E26.76843
G1 X102.607 Y84.147 E26.81805
G1 X101.894 Y84.287 E26.85431
G1 X101.513 Y84.329 E26.87343
G1 X100.524 Y84.409 E26.92293
G1 X99.44 Y84.407 E26.97701
G1 X98.451 Y84.324 E27.02653
G1 X97.732 Y84.223 E27.06275
