;FLAVOR:Repetier
;TIME:2934
;Generated with Cura_SteamEngine 3.5.1
M190 S80
M104 S240
M109 S240
M82 ;absolute extrusion mode
G21 ;metric values
G90 ;absolute positioning
M82 ;set extruder to absolute mode
M107 ;start with the fan off
G28 X0 Y0 ;move X/Y to min endstops
G28 Z0 ;move Z to min endstops
G1 Z15.0 F9000 ;move the platform down 15mm
G92 E0 ;zero the extruded length
G1 F200 E3 ;extrude 3mm of feed stock
G92 E0 ;zero the extruded length again
G1 F9000
;Put printing message on LCD screen
M117 Printing...
G92 E0
;LAYER_COUNT:169
;LAYER:0
M107
G0 F3600 X70.022 Y65.946 Z0.3
;TYPE:SKIRT
G1 F1800 X85.033 Y50.977 E1.05763
G1 X85.62 Y50.448 E1.09705
G1 X86.257 Y49.982 E1.13643
G1 X86.938 Y49.582 E1.17583
G1 X87.656 Y49.253 E1.21523
G1 X88.404 Y48.999 E1.25464
G1 X89.173 Y48.821 E1.29402
G1 X89.957 Y48.722 E1.33345
G1 X90.541 Y48.7 E1.3626
G1 X92.383 Y48.7 E1.4545
G1 X93.172 Y48.74 E1.49391
G1 X93.952 Y48.859 E1.53328
G1 X94.014 Y48.875 E1.53647
G1 X94.238 Y48.823 E1.54795
G1 X95.022 Y48.723 E1.58738
G1 X95.739 Y48.701 E1.62317
G1 X97.653 Y48.731 E1.71867
G1 X98.441 Y48.783 E1.75807
G1 X99.22 Y48.915 E1.79748
G1 X99.981 Y49.125 E1.83687
G1 X100.717 Y49.41 E1.87625
G1 X101.421 Y49.769 E1.91567
G1 X102.085 Y50.197 E1.95508
G1 X102.702 Y50.69 E1.99449
G1 X103.054 Y51.022 E2.01863
G1 X118.023 Y66.033 E3.07625
G1 X118.552 Y66.62 E3.11568
G1 X119.018 Y67.257 E3.15505
G1 X119.418 Y67.938 E3.19445
G1 X119.747 Y68.656 E3.23386
G1 X120.001 Y69.404 E3.27327
G1 X120.179 Y70.173 E3.31265
G1 X120.278 Y70.957 E3.35207
G1 X120.3 Y71.541 E3.38123
G1 X120.3 Y73.383 E3.47313
G1 X120.26 Y74.172 E3.51254
G1 X120.21 Y74.498 E3.52899
G1 X120.277 Y75.022 E3.55535
G1 X120.299 Y75.739 E3.59114
G1 X120.269 Y77.653 E3.68664
G1 X120.217 Y78.441 E3.72604
G1 X120.085 Y79.22 E3.76546
G1 X119.875 Y79.981 E3.80484
G1 X119.59 Y80.717 E3.84422
G1 X119.231 Y81.421 E3.88364
G1 X118.803 Y82.085 E3.92306
G1 X118.31 Y82.702 E3.96246
G1 X117.978 Y83.054 E3.9866
G1 X102.967 Y98.023 E5.04423
G1 X102.38 Y98.552 E5.08365
G1 X101.743 Y99.018 E5.12302
G1 X101.062 Y99.418 E5.16243
G1 X100.344 Y99.747 E5.20183
G1 X99.596 Y100.001 E5.24124
G1 X98.827 Y100.179 E5.28062
G1 X98.043 Y100.278 E5.32005
G1 X97.459 Y100.3 E5.3492
G1 X95.617 Y100.3 E5.4411
G1 X94.828 Y100.26 E5.48051
G1 X94.048 Y100.141 E5.51988
G1 X93.986 Y100.125 E5.52307
G1 X93.762 Y100.177 E5.53455
G1 X92.978 Y100.277 E5.57398
G1 X92.261 Y100.299 E5.60976
G1 X90.347 Y100.269 E5.70527
G1 X89.559 Y100.217 E5.74466
G1 X88.78 Y100.085 E5.78408
G1 X88.019 Y99.875 E5.82347
G1 X87.283 Y99.59 E5.86284
G1 X86.579 Y99.231 E5.90227
G1 X85.915 Y98.803 E5.94168
G1 X85.298 Y98.31 E5.98109
G1 X84.946 Y97.978 E6.00523
G1 X69.977 Y82.967 E7.06285
G1 X69.448 Y82.38 E7.10227
G1 X68.982 Y81.743 E7.14165
G1 X68.582 Y81.062 E7.18105
G1 X68.253 Y80.344 E7.22046
G1 X67.999 Y79.596 E7.25987
G1 X67.821 Y78.827 E7.29925
G1 X67.722 Y78.043 E7.33867
G1 X67.7 Y77.459 E7.36783
G1 X67.7 Y75.617 E7.45973
G1 X67.74 Y74.828 E7.49914
G1 X67.79 Y74.502 E7.51559
G1 X67.723 Y73.978 E7.54195
G1 X67.701 Y73.261 E7.57774
G1 X67.731 Y71.347 E7.67324
G1 X67.783 Y70.559 E7.71264
G1 X67.915 Y69.78 E7.75206
G1 X68.125 Y69.019 E7.79144
G1 X68.41 Y68.283 E7.83082
G1 X68.769 Y67.579 E7.87024
G1 X69.197 Y66.915 E7.90966
G1 X69.69 Y66.298 E7.94906
G1 X70.022 Y65.946 E7.9732
G0 F3600 X70.305 Y66.229
G1 F1800 X85.316 Y51.26 E9.03083
G1 X85.888 Y50.746 E9.06919
G1 X86.51 Y50.294 E9.10755
G1 X87.176 Y49.909 E9.14593
G1 X87.879 Y49.596 E9.18432
G1 X88.61 Y49.357 E9.22269
G1 X89.361 Y49.195 E9.26102
G1 X90.126 Y49.112 E9.29941
G1 X90.541 Y49.1 E9.32012
G1 X92.383 Y49.1 E9.41202
G1 X93.151 Y49.14 E9.45039
G1 X93.911 Y49.259 E9.48877
G1 X94.012 Y49.286 E9.49398
G1 X94.427 Y49.196 E9.51517
G1 X95.192 Y49.112 E9.55357
G1 X95.733 Y49.101 E9.58056
G1 X97.647 Y49.131 E9.67606
G1 X98.414 Y49.183 E9.71442
G1 X99.172 Y49.314 E9.75279
G1 X99.912 Y49.524 E9.79117
G1 X100.627 Y49.809 E9.82957
G1 X101.308 Y50.166 E9.86793
G1 X101.948 Y50.593 E9.90632
G1 X102.771 Y51.305 E9.96061
G1 X117.74 Y66.316 E11.01824
G1 X118.254 Y66.888 E11.0566
G1 X118.706 Y67.51 E11.09496
G1 X119.091 Y68.176 E11.13334
G1 X119.404 Y68.879 E11.17173
G1 X119.643 Y69.61 E11.2101
G1 X119.805 Y70.361 E11.24843
G1 X119.888 Y71.126 E11.28682
G1 X119.9 Y71.541 E11.30753
G1 X119.9 Y73.383 E11.39943
G1 X119.86 Y74.151 E11.4378
G1 X119.809 Y74.475 E11.45416
G1 X119.888 Y75.192 E11.49015
G1 X119.899 Y75.733 E11.51715
G1 X119.869 Y77.647 E11.61265
G1 X119.817 Y78.414 E11.651
G1 X119.686 Y79.172 E11.68938
G1 X119.476 Y79.912 E11.72776
G1 X119.191 Y80.627 E11.76616
G1 X118.834 Y81.308 E11.80452
G1 X118.407 Y81.948 E11.8429
G1 X117.695 Y82.771 E11.89719
G1 X102.684 Y97.74 E12.95482
G1 X102.112 Y98.254 E12.99319
G1 X101.49 Y98.706 E13.03155
G1 X100.824 Y99.091 E13.06993
G1 X100.121 Y99.404 E13.10832
G1 X99.39 Y99.643 E13.14669
G1 X98.639 Y99.805 E13.18502
G1 X97.874 Y99.888 E13.22341
G1 X97.459 Y99.9 E13.24412
G1 X95.617 Y99.9 E13.33602
G1 X94.849 Y99.86 E13.37439
G1 X94.089 Y99.741 E13.41276
G1 X93.988 Y99.714 E13.41798
G1 X93.573 Y99.804 E13.43917
G1 X92.808 Y99.888 E13.47756
G1 X92.267 Y99.899 E13.50456
G1 X90.353 Y99.869 E13.60006
G1 X89.586 Y99.817 E13.63841
G1 X88.828 Y99.686 E13.67679
G1 X88.088 Y99.476 E13.71517
G1 X87.373 Y99.191 E13.75357
G1 X86.692 Y98.834 E13.79193
G1 X86.052 Y98.407 E13.83031
G1 X85.229 Y97.695 E13.8846
G1 X70.26 Y82.684 E14.94223
G1 X69.746 Y82.112 E14.9806
G1 X69.294 Y81.49 E15.01896
G1 X68.909 Y80.824 E15.05734
G1 X68.596 Y80.121 E15.09573
G1 X68.357 Y79.39 E15.1341
G1 X68.195 Y78.639 E15.17243
G1 X68.112 Y77.874 E15.21082
G1 X68.1 Y77.459 E15.23153
G1 X68.1 Y75.617 E15.32343
G1 X68.14 Y74.849 E15.3618
G1 X68.191 Y74.525 E15.37816
G1 X68.112 Y73.808 E15.41415
G1 X68.101 Y73.267 E15.44114
G1 X68.131 Y71.353 E15.53664
G1 X68.183 Y70.586 E15.575
G1 X68.314 Y69.828 E15.61338
G1 X68.524 Y69.088 E15.65175
G1 X68.809 Y68.373 E15.69015
G1 X69.166 Y67.692 E15.72851
G1 X69.593 Y67.052 E15.7669
G1 X70.305 Y66.229 E15.82119
G0 F3600 X70.587 Y66.512
G1 F1800 X85.598 Y51.543 E16.87882
G1 X86.155 Y51.044 E16.91613
G1 X86.763 Y50.607 E16.95348
G1 X87.413 Y50.238 E16.99077
G1 X88.099 Y49.94 E17.02809
G1 X88.813 Y49.717 E17.0654
G1 X89.547 Y49.571 E17.10274
G1 X90.541 Y49.5 E17.15246
G1 X92.383 Y49.5 E17.24436
G1 X93.13 Y49.54 E17.28168
G1 X93.868 Y49.659 E17.31897
G1 X93.999 Y49.695 E17.32575
G1 X94.613 Y49.572 E17.35699
G1 X95.727 Y49.501 E17.41268
G1 X97.641 Y49.531 E17.50818
G1 X98.387 Y49.583 E17.54549
G1 X99.123 Y49.714 E17.58279
G1 X99.842 Y49.922 E17.62013
G1 X100.534 Y50.207 E17.65747
G1 X101.191 Y50.563 E17.69475
G1 X101.807 Y50.988 E17.73209
G1 X102.488 Y51.587 E17.77733
G1 X117.457 Y66.598 E18.83496
G1 X117.956 Y67.155 E18.87227
G1 X118.393 Y67.763 E18.90962
G1 X118.762 Y68.413 E18.94691
G1 X119.06 Y69.099 E18.98423
G1 X119.283 Y69.813 E19.02155
G1 X119.429 Y70.547 E19.05888
G1 X119.5 Y71.541 E19.1086
G1 X119.5 Y73.383 E19.2005
G1 X119.46 Y74.13 E19.23782
G1 X119.403 Y74.486 E19.25581
G1 X119.428 Y74.613 E19.26227
G1 X119.499 Y75.727 E19.31796
G1 X119.469 Y77.641 E19.41346
G1 X119.417 Y78.387 E19.45077
G1 X119.286 Y79.123 E19.48806
G1 X119.078 Y79.842 E19.5254
G1 X118.793 Y80.534 E19.56274
G1 X118.437 Y81.191 E19.60002
G1 X118.012 Y81.807 E19.63736
G1 X117.413 Y82.488 E19.68261
G1 X102.402 Y97.457 E20.74023
G1 X101.845 Y97.956 E20.77754
G1 X101.237 Y98.393 E20.8149
G1 X100.587 Y98.762 E20.85219
G1 X99.901 Y99.06 E20.8895
G1 X99.187 Y99.283 E20.92682
G1 X98.453 Y99.429 E20.96416
G1 X97.459 Y99.5 E21.01388
G1 X95.617 Y99.5 E21.10577
G1 X94.87 Y99.46 E21.14309
G1 X94.132 Y99.341 E21.18039
G1 X94.001 Y99.305 E21.18717
G1 X93.387 Y99.428 E21.21841
G1 X92.273 Y99.499 E21.2741
G1 X90.359 Y99.469 E21.3696
G1 X89.613 Y99.417 E21.40691
G1 X88.877 Y99.286 E21.4442
G1 X88.158 Y99.078 E21.48155
G1 X87.466 Y98.793 E21.51888
G1 X86.809 Y98.437 E21.55616
G1 X86.193 Y98.012 E21.5935
G1 X85.512 Y97.413 E21.63875
G1 X70.543 Y82.402 E22.69638
G1 X70.044 Y81.845 E22.73369
G1 X69.607 Y81.237 E22.77104
G1 X69.238 Y80.587 E22.80833
G1 X68.94 Y79.901 E22.84565
G1 X68.717 Y79.187 E22.88296
G1 X68.571 Y78.453 E22.9203
G1 X68.5 Y77.459 E22.97002
G1 X68.5 Y75.617 E23.06192
G1 X68.54 Y74.87 E23.09924
G1 X68.597 Y74.514 E23.11722
G1 X68.572 Y74.387 E23.12368
G1 X68.501 Y73.273 E23.17937
G1 X68.531 Y71.359 E23.27487
G1 X68.583 Y70.613 E23.31218
G1 X68.714 Y69.877 E23.34948
G1 X68.922 Y69.158 E23.38682
G1 X69.207 Y68.466 E23.42416
G1 X69.563 Y67.809 E23.46144
G1 X69.988 Y67.193 E23.49878
G1 X70.587 Y66.512 E23.54402
G0 F3600 X70.87 Y66.796
G1 F1800 X85.881 Y51.827 E24.60165
G1 X86.422 Y51.343 E24.63787
G1 X87.014 Y50.921 E24.67414
G1 X87.648 Y50.568 E24.71034
G1 X88.318 Y50.286 E24.74661
G1 X89.014 Y50.079 E24.78283
G1 X89.729 Y49.95 E24.81908
G1 X90.541 Y49.9 E24.85967
G1 X92.383 Y49.9 E24.95156
G1 X93.108 Y49.94 E24.98779
G1 X93.825 Y50.059 E25.02405
G1 X93.994 Y50.107 E25.03282
G1 X94.081 Y50.081 E25.03735
G1 X94.796 Y49.951 E25.0736
G1 X95.72 Y49.901 E25.11977
G1 X97.634 Y49.931 E25.21527
G1 X98.359 Y49.982 E25.25153
G1 X99.073 Y50.113 E25.28775
G1 X99.769 Y50.321 E25.32399
G1 X100.438 Y50.605 E25.36025
G1 X101.072 Y50.96 E25.3965
G1 X101.662 Y51.383 E25.43272
G1 X102.204 Y51.87 E25.46907
G1 X117.173 Y66.881 E26.5267
G1 X117.657 Y67.422 E26.56291
G1 X118.079 Y68.014 E26.59918
G1 X118.432 Y68.648 E26.63538
G1 X118.714 Y69.318 E26.67165
G1 X118.921 Y70.014 E26.70788
G1 X119.05 Y70.729 E26.74413
G1 X119.1 Y71.541 E26.78471
G1 X119.1 Y73.383 E26.87661
G1 X119.06 Y74.108 E26.91284
G1 X118.995 Y74.499 E26.93261
G1 X119.049 Y74.796 E26.94767
G1 X119.099 Y75.72 E26.99384
G1 X119.069 Y77.634 E27.08934
G1 X119.018 Y78.359 E27.1256
G1 X118.887 Y79.073 E27.16181
G1 X118.679 Y79.769 E27.19806
G1 X118.395 Y80.438 E27.23432
G1 X118.04 Y81.072 E27.27057
G1 X117.617 Y81.662 E27.30679
G1 X117.13 Y82.204 E27.34314
G1 X102.119 Y97.173 E28.40076
G1 X101.578 Y97.657 E28.43698
G1 X100.986 Y98.079 E28.47325
G1 X100.352 Y98.432 E28.50945
G1 X99.682 Y98.714 E28.54572
G1 X98.986 Y98.921 E28.58195
G1 X98.271 Y99.05 E28.61819
G1 X97.459 Y99.1 E28.65878
G1 X95.617 Y99.1 E28.75068
G1 X94.892 Y99.06 E28.7869
G1 X94.175 Y98.941 E28.82317
G1 X94.006 Y98.893 E28.83193
G1 X93.919 Y98.919 E28.83646
G1 X93.204 Y99.049 E28.87272
G1 X92.28 Y99.099 E28.91888
G1 X90.366 Y99.069 E29.01438
G1 X89.641 Y99.018 E29.05064
G1 X88.927 Y98.887 E29.08686
G1 X88.231 Y98.679 E29.1231
G1 X87.562 Y98.395 E29.15936
G1 X86.928 Y98.04 E29.19561
G1 X86.338 Y97.617 E29.23183
G1 X85.796 Y97.13 E29.26818
G1 X70.827 Y82.119 E30.32581
G1 X70.343 Y81.578 E30.36203
G1 X69.921 Y80.986 E30.3983
G1 X69.568 Y80.352 E30.4345
G1 X69.286 Y79.682 E30.47077
G1 X69.079 Y78.986 E30.50699
G1 X68.95 Y78.271 E30.54324
G1 X68.9 Y77.459 E30.58383
G1 X68.9 Y75.617 E30.67573
G1 X68.94 Y74.892 E30.71195
G1 X69.005 Y74.501 E30.73173
G1 X68.951 Y74.204 E30.74679
G1 X68.901 Y73.28 E30.79295
G1 X68.931 Y71.366 E30.88845
G1 X68.982 Y70.641 E30.92471
G1 X69.113 Y69.927 E30.96093
G1 X69.321 Y69.231 E30.99717
G1 X69.605 Y68.562 E31.03343
G1 X69.96 Y67.928 E31.06968
G1 X70.383 Y67.338 E31.1059
G1 X70.87 Y66.796 E31.14225
G0 F3600 X71.152 Y67.079
G1 F1800 X86.163 Y52.11 E32.19988
G1 X86.689 Y51.642 E32.235
G1 X87.265 Y51.236 E32.27016
G1 X87.882 Y50.899 E32.30524
G1 X88.534 Y50.634 E32.34035
G1 X89.212 Y50.444 E32.37548
G1 X89.908 Y50.332 E32.41065
G1 X90.541 Y50.3 E32.44227
G1 X92.383 Y50.3 E32.53417
G1 X93.086 Y50.34 E32.5693
G1 X93.78 Y50.459 E32.60443
G1 X94.002 Y50.524 E32.61597
G1 X94.28 Y50.446 E32.63037
G1 X94.975 Y50.333 E32.6655
G1 X95.714 Y50.301 E32.7024
G1 X97.628 Y50.331 E32.79791
G1 X98.33 Y50.382 E32.83302
G1 X99.022 Y50.512 E32.86815
G1 X99.695 Y50.72 E32.90329
G1 X100.339 Y51.003 E32.93839
G1 X100.948 Y51.357 E32.97353
G1 X101.512 Y51.777 E33.00861
G1 X101.921 Y52.152 E33.0363
G1 X116.89 Y67.163 E34.09392
G1 X117.358 Y67.689 E34.12905
G1 X117.764 Y68.265 E34.16421
G1 X118.101 Y68.882 E34.19928
G1 X118.366 Y69.534 E34.23439
G1 X118.556 Y70.212 E34.26952
G1 X118.668 Y70.908 E34.30469
G1 X118.7 Y71.541 E34.33631
G1 X118.7 Y73.383 E34.42821
G1 X118.66 Y74.086 E34.46334
G1 X118.589 Y74.498 E34.4842
G1 X118.667 Y74.975 E34.50831
G1 X118.699 Y75.714 E34.54522
G1 X118.669 Y77.628 E34.64072
G1 X118.618 Y78.33 E34.67583
G1 X118.488 Y79.022 E34.71096
G1 X118.28 Y79.695 E34.7461
G1 X117.997 Y80.339 E34.7812
G1 X117.643 Y80.948 E34.81634
G1 X117.223 Y81.512 E34.85142
G1 X116.848 Y81.921 E34.87911
G1 X101.837 Y96.89 E35.93673
G1 X101.311 Y97.358 E35.97186
G1 X100.735 Y97.764 E36.00702
G1 X100.118 Y98.101 E36.04209
G1 X99.466 Y98.366 E36.07721
G1 X98.788 Y98.556 E36.11233
G1 X98.092 Y98.668 E36.1475
G1 X97.459 Y98.7 E36.17913
G1 X95.617 Y98.7 E36.27102
G1 X94.914 Y98.66 E36.30615
G1 X94.22 Y98.541 E36.34128
G1 X93.998 Y98.476 E36.35282
G1 X93.72 Y98.554 E36.36723
G1 X93.025 Y98.667 E36.40236
G1 X92.286 Y98.699 E36.43926
G1 X90.372 Y98.669 E36.53476
G1 X89.67 Y98.618 E36.56988
G1 X88.978 Y98.488 E36.605
G1 X88.305 Y98.28 E36.64015
G1 X87.661 Y97.997 E36.67524
G1 X87.052 Y97.643 E36.71039
G1 X86.488 Y97.223 E36.74547
G1 X86.079 Y96.848 E36.77315
G1 X71.11 Y81.837 E37.83078
G1 X70.642 Y81.311 E37.8659
G1 X70.236 Y80.735 E37.90106
G1 X69.899 Y80.118 E37.93614
G1 X69.634 Y79.466 E37.97125
G1 X69.444 Y78.788 E38.00638
G1 X69.332 Y78.092 E38.04155
G1 X69.3 Y77.459 E38.07317
G1 X69.3 Y75.617 E38.16507
G1 X69.34 Y74.914 E38.2002
G1 X69.411 Y74.502 E38.22105
G1 X69.333 Y74.025 E38.24517
G1 X69.301 Y73.286 E38.28207
G1 X69.331 Y71.372 E38.37757
G1 X69.382 Y70.67 E38.41269
G1 X69.512 Y69.978 E38.44782
G1 X69.72 Y69.305 E38.48296
G1 X70.003 Y68.661 E38.51805
G1 X70.357 Y68.052 E38.5532
G1 X70.777 Y67.488 E38.58828
G1 X71.152 Y67.079 E38.61596
G0 F3600 X71.435 Y67.362
G1 F1800 X86.446 Y52.393 E39.67359
G1 X86.955 Y51.941 E39.70755
G1 X87.514 Y51.553 E39.7415
G1 X88.115 Y51.232 E39.77549
G1 X88.749 Y50.984 E39.80946
G1 X89.408 Y50.812 E39.84344
G1 X90.082 Y50.718 E39.87739
G1 X90.541 Y50.7 E39.9003
G1 X92.383 Y50.7 E39.9922
G1 X93.063 Y50.74 E40.02619
G1 X93.733 Y50.859 E40.06014
G1 X93.997 Y50.939 E40.0739
G1 X94.476 Y50.813 E40.09861
G1 X95.15 Y50.719 E40.13256
G1 X95.708 Y50.701 E40.16041
G1 X97.622 Y50.731 E40.25592
G1 X98.301 Y50.781 E40.28988
G1 X98.969 Y50.911 E40.32383
G1 X99.618 Y51.118 E40.35782
G1 X100.238 Y51.4 E40.3918
G1 X100.82 Y51.753 E40.42576
G1 X101.357 Y52.171 E40.45971
G1 X101.638 Y52.435 E40.47895
G1 X116.607 Y67.446 E41.53657
G1 X117.059 Y67.955 E41.57054
G1 X117.447 Y68.514 E41.60448
G1 X117.768 Y69.115 E41.63848
G1 X118.016 Y69.749 E41.67244
G1 X118.188 Y70.408 E41.70642
G1 X118.282 Y71.082 E41.74037
G1 X118.3 Y71.541 E41.76329
G1 X118.3 Y73.383 E41.85519
G1 X118.26 Y74.063 E41.88917
G1 X118.187 Y74.475 E41.91004
G1 X118.187 Y74.476 E41.91009
G1 X118.281 Y75.15 E41.94405
G1 X118.299 Y75.708 E41.9719
G1 X118.269 Y77.622 E42.0674
G1 X118.219 Y78.301 E42.10137
G1 X118.089 Y78.969 E42.13532
G1 X117.882 Y79.618 E42.16931
G1 X117.6 Y80.238 E42.20329
G1 X117.247 Y80.82 E42.23725
G1 X116.829 Y81.357 E42.2712
G1 X116.565 Y81.638 E42.29043
G1 X101.554 Y96.607 E43.34806
G1 X101.045 Y97.059 E43.38202
G1 X100.486 Y97.447 E43.41597
G1 X99.885 Y97.768 E43.44996
G1 X99.251 Y98.016 E43.48393
G1 X98.592 Y98.188 E43.51791
G1 X97.918 Y98.282 E43.55186
G1 X97.459 Y98.3 E43.57477
G1 X95.617 Y98.3 E43.66667
G1 X94.937 Y98.26 E43.70066
G1 X94.267 Y98.141 E43.73461
G1 X94.003 Y98.061 E43.74837
G1 X93.524 Y98.187 E43.77308
G1 X92.85 Y98.281 E43.80703
G1 X92.292 Y98.299 E43.83488
G1 X90.378 Y98.269 E43.93038
G1 X89.699 Y98.219 E43.96435
G1 X89.031 Y98.089 E43.9983
G1 X88.382 Y97.882 E44.03229
G1 X87.762 Y97.6 E44.06627
G1 X87.18 Y97.247 E44.10023
G1 X86.643 Y96.829 E44.13418
G1 X86.362 Y96.565 E44.15342
G1 X71.393 Y81.554 E45.21104
G1 X70.941 Y81.045 E45.245
G1 X70.553 Y80.486 E45.27895
G1 X70.232 Y79.885 E45.31295
G1 X69.984 Y79.251 E45.34691
G1 X69.812 Y78.592 E45.38089
G1 X69.718 Y77.918 E45.41484
G1 X69.7 Y77.459 E45.43776
G1 X69.7 Y75.617 E45.52965
G1 X69.74 Y74.937 E45.56364
G1 X69.813 Y74.524 E45.58456
G1 X69.719 Y73.85 E45.61851
G1 X69.701 Y73.292 E45.64637
G1 X69.731 Y71.378 E45.74187
