;FLAVOR:Repetier
;TIME:1104
;Generated with Cura_SteamEngine 3.5.1
M104 S220
M109 S220
M82 ;absolute extrusion mode
G21 ;metric values
G90 ;absolute positioning
M82 ;set extruder to absolute mode
M107 ;start with the fan off
G28 X0 Y0 ;move X/Y to min endstops
G28 Z0 ;move Z to min endstops
G1 Z15.0 F9000 ;move the platform down 15mm
G92 E0 ;zero the extruded length
G1 F200 E3 ;extrude 3mm of feed stock
G92 E0 ;zero the extruded length again
G1 F9000
;Put printing message on LCD screen
M117 Printing...
G92 E0
;LAYER_COUNT:169
;LAYER:0
M107
G0 F3600 X71.514 Y33.617 Z0.3
;TYPE:SKIRT
G1 F1800 X71.862 Y32.908 E0.0394
G1 X72.28 Y32.237 E0.07884
G1 X72.763 Y31.613 E0.11821
G1 X73.168 Y31.176 E0.14794
G1 X73.285 Y31.059 E0.15619
G1 X73.871 Y30.529 E0.19561
G1 X74.507 Y30.062 E0.23498
G1 X75.187 Y29.661 E0.27436
G1 X75.905 Y29.331 E0.31379
G1 X76.652 Y29.076 E0.35316
G1 X77.421 Y28.897 E0.39256
G1 X78.205 Y28.797 E0.43199
G1 X78.8 Y28.774 E0.46169
G1 X95.566 Y28.774 E1.29815
G1 X96.355 Y28.814 E1.33757
G1 X97.135 Y28.933 E1.37693
G1 X97.9 Y29.131 E1.41636
G1 X98.64 Y29.405 E1.45572
G1 X99.349 Y29.753 E1.49513
G1 X100.02 Y30.171 E1.53457
G1 X100.644 Y30.654 E1.57394
G1 X101.081 Y31.059 E1.60366
G1 X101.198 Y31.176 E1.61192
G1 X101.728 Y31.762 E1.65133
G1 X102.195 Y32.398 E1.6907
G1 X102.596 Y33.078 E1.73009
G1 X102.926 Y33.796 E1.76951
G1 X103.181 Y34.543 E1.80889
G1 X103.36 Y35.312 E1.84828
G1 X103.46 Y36.096 E1.88771
G1 X103.483 Y36.691 E1.91742
G1 X103.483 Y53.457 E2.75388
G1 X103.443 Y54.246 E2.79329
G1 X103.324 Y55.026 E2.83265
G1 X103.126 Y55.791 E2.87208
G1 X102.852 Y56.531 E2.91145
G1 X102.504 Y57.24 E2.95085
G1 X102.086 Y57.911 E2.99029
G1 X101.603 Y58.535 E3.02966
G1 X101.198 Y58.972 E3.05938
G1 X101.081 Y59.089 E3.06764
G1 X100.495 Y59.619 E3.10706
G1 X99.859 Y60.086 E3.14642
G1 X99.179 Y60.487 E3.18581
G1 X98.461 Y60.817 E3.22523
G1 X97.714 Y61.072 E3.26461
G1 X96.945 Y61.251 E3.304
G1 X96.161 Y61.351 E3.34343
G1 X95.444 Y61.373 E3.37922
G1 X93.53 Y61.343 E3.47472
G1 X92.742 Y61.291 E3.51412
G1 X91.963 Y61.159 E3.55354
G1 X91.202 Y60.949 E3.59293
G1 X90.466 Y60.664 E3.6323
G1 X89.762 Y60.305 E3.67173
G1 X89.098 Y59.877 E3.71114
G1 X88.481 Y59.384 E3.75054
G1 X88.129 Y59.052 E3.77468
G1 X73.16 Y44.041 E4.83231
G1 X72.631 Y43.454 E4.87173
G1 X72.165 Y42.817 E4.91111
G1 X71.765 Y42.136 E4.95051
G1 X71.436 Y41.418 E4.98991
G1 X71.182 Y40.67 E5.02932
G1 X71.004 Y39.901 E5.0687
G1 X70.905 Y39.117 E5.10813
G1 X70.883 Y38.533 E5.13729
G1 X70.883 Y36.691 E5.22918
G1 X70.923 Y35.902 E5.2686
G1 X71.042 Y35.122 E5.30796
G1 X71.24 Y34.357 E5.34739
G1 X71.514 Y33.617 E5.38675
G0 F3600 X71.914 Y33.701
G1 F1800 X72.261 Y33.015 E5.42511
G1 X72.677 Y32.368 E5.46348
G1 X73.158 Y31.768 E5.50185
G1 X73.45 Y31.458 E5.5231
G1 X73.567 Y31.341 E5.53135
G1 X74.139 Y30.827 E5.56972
G1 X74.761 Y30.374 E5.60811
G1 X75.426 Y29.988 E5.64647
G1 X76.128 Y29.673 E5.68485
G1 X76.859 Y29.433 E5.72324
G1 X77.61 Y29.27 E5.76158
G1 X78.375 Y29.186 E5.79997
G1 X78.8 Y29.174 E5.82119
G1 X95.566 Y29.174 E6.65765
G1 X96.334 Y29.214 E6.69601
G1 X97.094 Y29.333 E6.73439
G1 X97.837 Y29.531 E6.77275
G1 X98.556 Y29.805 E6.81114
G1 X99.242 Y30.152 E6.84949
G1 X99.889 Y30.568 E6.88787
G1 X100.489 Y31.049 E6.92624
G1 X100.799 Y31.341 E6.94748
G1 X100.916 Y31.458 E6.95574
G1 X101.43 Y32.03 E6.9941
G1 X101.883 Y32.652 E7.03249
G1 X102.269 Y33.317 E7.07085
G1 X102.584 Y34.019 E7.10924
G1 X102.824 Y34.75 E7.14763
G1 X102.987 Y35.501 E7.18597
G1 X103.071 Y36.266 E7.22436
G1 X103.083 Y36.691 E7.24557
G1 X103.083 Y53.457 E8.08203
G1 X103.043 Y54.225 E8.1204
G1 X102.924 Y54.985 E8.15878
G1 X102.726 Y55.728 E8.19714
G1 X102.452 Y56.447 E8.23553
G1 X102.105 Y57.133 E8.27388
G1 X101.689 Y57.78 E8.31226
G1 X101.208 Y58.38 E8.35062
G1 X100.916 Y58.69 E8.37187
G1 X100.799 Y58.807 E8.38012
G1 X100.227 Y59.321 E8.41849
G1 X99.605 Y59.774 E8.45688
G1 X98.94 Y60.16 E8.49524
G1 X98.238 Y60.475 E8.53363
G1 X97.507 Y60.715 E8.57201
G1 X96.756 Y60.878 E8.61035
G1 X95.991 Y60.962 E8.64875
G1 X95.45 Y60.973 E8.67575
G1 X93.536 Y60.943 E8.77125
G1 X92.769 Y60.891 E8.8096
G1 X92.011 Y60.76 E8.84798
G1 X91.271 Y60.55 E8.88635
G1 X90.556 Y60.265 E8.92476
G1 X89.875 Y59.908 E8.96312
G1 X89.235 Y59.481 E9.0015
G1 X88.412 Y58.769 E9.05579
G1 X73.443 Y43.758 E10.11342
G1 X72.929 Y43.186 E10.15179
G1 X72.477 Y42.564 E10.19015
G1 X72.092 Y41.898 E10.22852
G1 X71.779 Y41.195 E10.26692
G1 X71.54 Y40.464 E10.30529
G1 X71.378 Y39.713 E10.34362
G1 X71.295 Y38.948 E10.38201
G1 X71.283 Y38.533 E10.40272
G1 X71.283 Y36.691 E10.49462
G1 X71.323 Y35.923 E10.53298
G1 X71.442 Y35.163 E10.57136
G1 X71.64 Y34.42 E10.60972
G1 X71.914 Y33.701 E10.64811
G0 F3600 X72.313 Y33.788
G1 F1800 X72.66 Y33.125 E10.68545
G1 X73.075 Y32.502 E10.72279
G1 X73.733 Y31.741 E10.77298
G1 X73.85 Y31.624 E10.78124
G1 X74.407 Y31.124 E10.81858
G1 X75.013 Y30.687 E10.85585
G1 X75.663 Y30.316 E10.89319
G1 X76.349 Y30.017 E10.93053
G1 X77.063 Y29.793 E10.96786
G1 X77.796 Y29.646 E11.00516
G1 X78.8 Y29.574 E11.05538
G1 X95.566 Y29.574 E11.89184
G1 X96.313 Y29.614 E11.92916
G1 X97.051 Y29.733 E11.96645
G1 X97.773 Y29.931 E12.0038
G1 X98.469 Y30.204 E12.0411
G1 X99.132 Y30.551 E12.07844
G1 X99.755 Y30.966 E12.11578
G1 X100.516 Y31.624 E12.16597
G1 X100.633 Y31.741 E12.17423
G1 X101.133 Y32.298 E12.21157
G1 X101.57 Y32.904 E12.24885
G1 X101.941 Y33.554 E12.28618
G1 X102.24 Y34.24 E12.32352
G1 X102.464 Y34.954 E12.36085
G1 X102.611 Y35.687 E12.39815
G1 X102.683 Y36.691 E12.44837
G1 X102.683 Y53.457 E13.28483
G1 X102.643 Y54.204 E13.32215
G1 X102.524 Y54.942 E13.35944
G1 X102.326 Y55.664 E13.39679
G1 X102.053 Y56.36 E13.43409
G1 X101.706 Y57.023 E13.47143
G1 X101.291 Y57.646 E13.50877
G1 X100.633 Y58.407 E13.55896
G1 X100.516 Y58.524 E13.56722
G1 X99.959 Y59.024 E13.60456
G1 X99.353 Y59.461 E13.64184
G1 X98.703 Y59.832 E13.67918
G1 X98.017 Y60.131 E13.71651
G1 X97.303 Y60.355 E13.75384
G1 X96.57 Y60.502 E13.79114
G1 X95.456 Y60.573 E13.84683
G1 X93.542 Y60.543 E13.94233
G1 X92.796 Y60.491 E13.97964
G1 X92.06 Y60.36 E14.01694
G1 X91.341 Y60.152 E14.05428
G1 X90.649 Y59.867 E14.09162
G1 X89.992 Y59.511 E14.1289
G1 X89.376 Y59.086 E14.16623
G1 X88.695 Y58.487 E14.21148
G1 X73.726 Y43.476 E15.26911
G1 X73.227 Y42.919 E15.30642
G1 X72.79 Y42.311 E15.34377
G1 X72.421 Y41.661 E15.38106
G1 X72.123 Y40.975 E15.41838
G1 X71.9 Y40.261 E15.4557
G1 X71.754 Y39.527 E15.49303
G1 X71.683 Y38.533 E15.54275
G1 X71.683 Y36.691 E15.63465
G1 X71.723 Y35.944 E15.67197
G1 X71.842 Y35.206 E15.70926
G1 X72.04 Y34.484 E15.74661
G1 X72.313 Y33.788 E15.78391
G0 F3600 X72.713 Y33.877
G1 F1800 X73.058 Y33.238 E15.82014
G1 X73.472 Y32.641 E15.85639
G1 X74.016 Y32.024 E15.89743
G1 X74.133 Y31.907 E15.90568
G1 X74.674 Y31.423 E15.9419
G1 X75.265 Y31 E15.97816
G1 X75.899 Y30.646 E16.01438
G1 X76.568 Y30.363 E16.05062
G1 X77.264 Y30.155 E16.08686
G1 X77.979 Y30.025 E16.12312
G1 X78.8 Y29.974 E16.16416
G1 X95.566 Y29.974 E17.00062
G1 X96.291 Y30.014 E17.03684
G1 X97.008 Y30.133 E17.07311
G1 X97.707 Y30.331 E17.10935
G1 X98.38 Y30.604 E17.14558
G1 X99.019 Y30.949 E17.18181
G1 X99.616 Y31.363 E17.21806
G1 X100.233 Y31.907 E17.2591
G1 X100.35 Y32.024 E17.26735
G1 X100.834 Y32.565 E17.30357
G1 X101.257 Y33.156 E17.33983
G1 X101.611 Y33.79 E17.37605
G1 X101.894 Y34.459 E17.41229
G1 X102.102 Y35.155 E17.44853
G1 X102.232 Y35.87 E17.48479
G1 X102.283 Y36.691 E17.52583
G1 X102.283 Y53.457 E18.36229
G1 X102.243 Y54.182 E18.39851
G1 X102.124 Y54.899 E18.43478
G1 X101.926 Y55.598 E18.47102
G1 X101.653 Y56.271 E18.50725
G1 X101.308 Y56.91 E18.54348
G1 X100.894 Y57.507 E18.57973
G1 X100.35 Y58.124 E18.62077
G1 X100.233 Y58.241 E18.62902
G1 X99.692 Y58.725 E18.66524
G1 X99.101 Y59.148 E18.7015
G1 X98.467 Y59.502 E18.73772
G1 X97.798 Y59.785 E18.77396
G1 X97.102 Y59.993 E18.8102
G1 X96.387 Y60.123 E18.84646
G1 X95.463 Y60.173 E18.89263
G1 X93.549 Y60.143 E18.98813
G1 X92.824 Y60.092 E19.02439
G1 X92.11 Y59.961 E19.0606
G1 X91.414 Y59.753 E19.09685
G1 X90.745 Y59.469 E19.13311
G1 X90.111 Y59.114 E19.16936
G1 X89.521 Y58.691 E19.20558
G1 X88.979 Y58.204 E19.24193
G1 X74.01 Y43.193 E20.29955
G1 X73.526 Y42.652 E20.33577
G1 X73.104 Y42.06 E20.37204
G1 X72.751 Y41.426 E20.40824
G1 X72.469 Y40.756 E20.44451
G1 X72.262 Y40.06 E20.48074
G1 X72.133 Y39.345 E20.51698
G1 X72.083 Y38.533 E20.55757
G1 X72.083 Y36.691 E20.64947
G1 X72.123 Y35.966 E20.68569
G1 X72.242 Y35.249 E20.72196
G1 X72.44 Y34.55 E20.7582
G1 X72.713 Y33.877 E20.79443
G0 F3600 X73.112 Y33.97
G1 F1800 X73.457 Y33.356 E20.82957
G1 X73.868 Y32.785 E20.86467
G1 X74.299 Y32.307 E20.89678
G1 X74.416 Y32.19 E20.90504
G1 X74.941 Y31.721 E20.94016
G1 X75.516 Y31.315 E20.97527
G1 X76.134 Y30.977 E21.01042
G1 X76.785 Y30.71 E21.04552
G1 X77.463 Y30.52 E21.08065
G1 X78.158 Y30.407 E21.11578
G1 X78.8 Y30.374 E21.14785
G1 X95.566 Y30.374 E21.98431
G1 X96.269 Y30.414 E22.01944
G1 X96.963 Y30.533 E22.05457
G1 X97.638 Y30.731 E22.08966
G1 X98.287 Y31.003 E22.12477
G1 X98.901 Y31.348 E22.15991
G1 X99.472 Y31.759 E22.19501
G1 X99.95 Y32.19 E22.22712
G1 X100.067 Y32.307 E22.23537
G1 X100.536 Y32.832 E22.27049
G1 X100.942 Y33.407 E22.30561
G1 X101.28 Y34.025 E22.34075
G1 X101.547 Y34.676 E22.37586
G1 X101.737 Y35.354 E22.41099
G1 X101.85 Y36.049 E22.44612
G1 X101.883 Y36.691 E22.47819
G1 X101.883 Y53.457 E23.31465
G1 X101.843 Y54.16 E23.34978
G1 X101.724 Y54.854 E23.3849
G1 X101.526 Y55.529 E23.42
G1 X101.254 Y56.178 E23.45511
G1 X100.909 Y56.792 E23.49024
G1 X100.498 Y57.363 E23.52534
G1 X100.067 Y57.841 E23.55745
G1 X99.95 Y57.958 E23.56571
G1 X99.425 Y58.427 E23.60083
G1 X98.85 Y58.833 E23.63595
G1 X98.232 Y59.171 E23.67109
G1 X97.581 Y59.438 E23.70619
G1 X96.903 Y59.628 E23.74132
G1 X96.208 Y59.741 E23.77645
G1 X95.469 Y59.773 E23.81336
G1 X93.555 Y59.743 E23.90886
G1 X92.853 Y59.692 E23.94397
G1 X92.161 Y59.562 E23.9791
G1 X91.488 Y59.354 E24.01424
G1 X90.844 Y59.071 E24.04934
G1 X90.235 Y58.717 E24.08448
G1 X89.671 Y58.297 E24.11956
G1 X89.262 Y57.922 E24.14725
G1 X74.293 Y42.911 E25.20487
G1 X73.825 Y42.385 E25.24
G1 X73.419 Y41.809 E25.27516
G1 X73.082 Y41.192 E25.31023
G1 X72.817 Y40.54 E25.34535
G1 X72.627 Y39.862 E25.38047
G1 X72.515 Y39.166 E25.41564
G1 X72.483 Y38.533 E25.44726
G1 X72.483 Y36.691 E25.53916
G1 X72.523 Y35.988 E25.57429
G1 X72.642 Y35.294 E25.60942
G1 X72.84 Y34.619 E25.64452
G1 X73.112 Y33.97 E25.67962
G0 F3600 X73.239 Y34.689
G1 F1800 X73.511 Y34.065 E25.71358
G1 X73.855 Y33.477 E25.74757
G1 X74.265 Y32.933 E25.78156
G1 X74.582 Y32.59 E25.80486
G1 X74.699 Y32.473 E25.81311
G1 X75.208 Y32.02 E25.84711
G1 X75.766 Y31.631 E25.88104
G1 X76.366 Y31.309 E25.91502
G1 X77 Y31.06 E25.949
G1 X77.659 Y30.887 E25.98299
G1 X78.333 Y30.793 E26.01694
G1 X78.8 Y30.774 E26.04026
G1 X95.566 Y30.774 E26.87672
G1 X96.246 Y30.814 E26.9107
G1 X96.916 Y30.933 E26.94465
G1 X97.568 Y31.13 E26.97863
G1 X98.192 Y31.402 E27.01259
G1 X98.78 Y31.746 E27.04658
G1 X99.324 Y32.156 E27.08057
G1 X99.667 Y32.473 E27.10387
G1 X99.784 Y32.59 E27.11212
G1 X100.237 Y33.099 E27.14612
G1 X100.626 Y33.657 E27.18005
G1 X100.948 Y34.257 E27.21402
G1 X101.197 Y34.891 E27.24801
G1 X101.37 Y35.55 E27.282
G1 X101.464 Y36.224 E27.31595
G1 X101.483 Y36.691 E27.33927
G1 X101.483 Y53.457 E28.17573
G1 X101.443 Y54.137 E28.20971
G1 X101.324 Y54.807 E28.24366
G1 X101.127 Y55.459 E28.27764
G1 X100.855 Y56.083 E28.3116
G1 X100.511 Y56.671 E28.34559
G1 X100.101 Y57.215 E28.37957
G1 X99.784 Y57.558 E28.40288
G1 X99.667 Y57.675 E28.41113
G1 X99.158 Y58.128 E28.44512
G1 X98.6 Y58.517 E28.47906
G1 X98 Y58.839 E28.51303
G1 X97.366 Y59.088 E28.54702
G1 X96.707 Y59.261 E28.58101
G1 X96.033 Y59.355 E28.61496
G1 X95.475 Y59.373 E28.64281
G1 X93.561 Y59.343 E28.73831
G1 X92.882 Y59.293 E28.77228
G1 X92.214 Y59.163 E28.80623
G1 X91.565 Y58.956 E28.84022
G1 X90.945 Y58.674 E28.8742
G1 X90.363 Y58.321 E28.90816
G1 X89.826 Y57.903 E28.94211
G1 X89.545 Y57.639 E28.96135
G1 X74.576 Y42.628 E30.01897
G1 X74.124 Y42.119 E30.05293
G1 X73.736 Y41.56 E30.08688
G1 X73.415 Y40.959 E30.12087
G1 X73.167 Y40.325 E30.15484
G1 X72.995 Y39.666 E30.18882
G1 X72.901 Y38.992 E30.22277
G1 X72.883 Y38.533 E30.24569
G1 X72.883 Y36.691 E30.33758
G1 X72.923 Y36.011 E30.37157
G1 X73.042 Y35.341 E30.40552
G1 X73.239 Y34.689 E30.4395
G0 F3600 X73.639 Y34.762
G1 F1800 X73.911 Y34.164 E30.47227
G1 X74.253 Y33.603 E30.50505
G1 X74.865 Y32.873 E30.55258
G1 X74.982 Y32.756 E30.56083
G1 X75.474 Y32.32 E30.59363
G1 X76.015 Y31.948 E30.62639
G1 X76.597 Y31.644 E30.65915
G1 X77.212 Y31.413 E30.69192
G1 X77.851 Y31.258 E30.72472
G1 X78.8 Y31.174 E30.77226
G1 X95.566 Y31.174 E31.60871
G1 X96.222 Y31.214 E31.6415
G1 X96.868 Y31.333 E31.67428
G1 X97.495 Y31.53 E31.70706
G1 X98.093 Y31.802 E31.73984
G1 X98.654 Y32.144 E31.77262
G1 X99.384 Y32.756 E31.82014
G1 X99.501 Y32.873 E31.8284
G1 X99.937 Y33.365 E31.8612
G1 X100.309 Y33.906 E31.89395
G1 X100.613 Y34.488 E31.92671
G1 X100.844 Y35.103 E31.95949
G1 X100.999 Y35.742 E31.99229
G1 X101.083 Y36.691 E32.03982
G1 X101.083 Y53.457 E32.87628
G1 X101.043 Y54.113 E32.90907
G1 X100.924 Y54.759 E32.94184
G1 X100.727 Y55.386 E32.97463
G1 X100.455 Y55.984 E33.0074
G1 X100.113 Y56.545 E33.04018
G1 X99.501 Y57.275 E33.08771
G1 X99.384 Y57.392 E33.09596
G1 X98.892 Y57.828 E33.12876
G1 X98.351 Y58.2 E33.16152
G1 X97.769 Y58.504 E33.19428
G1 X97.154 Y58.735 E33.22705
G1 X96.515 Y58.89 E33.25986
G1 X95.863 Y58.966 E33.2926
G1 X95.481 Y58.973 E33.31167
G1 X93.567 Y58.943 E33.40717
G1 X92.912 Y58.893 E33.43994
G1 X92.268 Y58.764 E33.47271
G1 X91.645 Y58.557 E33.50546
G1 X91.051 Y58.276 E33.53824
G1 X90.495 Y57.925 E33.57105
G1 X89.828 Y57.357 E33.61476
G1 X74.859 Y42.346 E34.67238
G1 X74.425 Y41.853 E34.70515
G1 X74.053 Y41.312 E34.73791
G1 X73.75 Y40.729 E34.77069
G1 X73.52 Y40.114 E34.80344
G1 X73.366 Y39.475 E34.83624
G1 X73.283 Y38.533 E34.88341
G1 X73.283 Y36.691 E34.97531
G1 X73.323 Y36.035 E35.0081
G1 X73.442 Y35.389 E35.04087
G1 X73.639 Y34.762 E35.07366
G0 F3600 X74.039 Y34.839
G1 F1800 X74.31 Y34.267 E35.10524
G1 X74.65 Y33.735 E35.13674
G1 X75.147 Y33.155 E35.17485
G1 X75.264 Y33.038 E35.1831
G1 X75.739 Y32.621 E35.21463
G1 X76.262 Y32.266 E35.24617
G1 X76.826 Y31.98 E35.27772
G1 X77.421 Y31.768 E35.30923
G1 X78.039 Y31.632 E35.3408
G1 X78.8 Y31.574 E35.37888
G1 X95.566 Y31.574 E36.21534
G1 X96.197 Y31.614 E36.24688
G1 X96.818 Y31.733 E36.27843
G1 X97.418 Y31.93 E36.30993
G1 X97.99 Y32.201 E36.34151
G1 X98.522 Y32.541 E36.37301
G1 X99.102 Y33.038 E36.41112
G1 X99.219 Y33.155 E36.41937
G1 X99.636 Y33.63 E36.45091
G1 X99.991 Y34.153 E36.48244
G1 X100.277 Y34.717 E36.51399
G1 X100.489 Y35.312 E36.5455
G1 X100.625 Y35.93 E36.57707
G1 X100.683 Y36.691 E36.61515
G1 X100.683 Y53.457 E37.45161
G1 X100.643 Y54.088 E37.48315
G1 X100.524 Y54.709 E37.5147
G1 X100.327 Y55.309 E37.5462
G1 X100.056 Y55.881 E37.57778
G1 X99.716 Y56.413 E37.60928
G1 X99.219 Y56.993 E37.64739
G1 X99.102 Y57.11 E37.65564
G1 X98.627 Y57.527 E37.68718
G1 X98.104 Y57.882 E37.71871
G1 X97.54 Y58.168 E37.75026
G1 X96.945 Y58.38 E37.78178
G1 X96.327 Y58.516 E37.81335
G1 X95.488 Y58.573 E37.8553
G1 X93.574 Y58.543 E37.9508
G1 X92.943 Y58.494 E37.98238
G1 X92.325 Y58.365 E38.01387
G1 X91.727 Y58.159 E38.04543
G1 X91.16 Y57.879 E38.07698
G1 X90.633 Y57.53 E38.10851
G1 X90.112 Y57.075 E38.14302
G1 X75.143 Y42.064 E39.20065
G1 X74.725 Y41.589 E39.23222
G1 X74.371 Y41.065 E39.26376
G1 X74.086 Y40.501 E39.29529
G1 X73.875 Y39.905 E39.32683
G1 X73.74 Y39.287 E39.35839
G1 X73.683 Y38.533 E39.39612
G1 X73.683 Y36.691 E39.48802
G1 X73.723 Y36.06 E39.51956
G1 X73.842 Y35.439 E39.5511
G1 X74.039 Y34.839 E39.58261
G0 F3600 X74.438 Y34.918
G1 F1800 X74.709 Y34.375 E39.61289
G1 X75.048 Y33.872 E39.64315
G1 X75.43 Y33.438 E39.67199
G1 X75.547 Y33.321 E39.68025
G1 X76.003 Y32.922 E39.71048
G1 X76.508 Y32.586 E39.74074
G1 X77.052 Y32.319 E39.77097
G1 X77.627 Y32.126 E39.80123
G1 X78.222 Y32.01 E39.83148
G1 X78.8 Y31.974 E39.86037
G1 X95.566 Y31.974 E40.69683
G1 X96.171 Y32.014 E40.72708
G1 X96.765 Y32.133 E40.7573
G1 X97.339 Y32.329 E40.78756
G1 X97.882 Y32.6 E40.81784
G1 X98.385 Y32.939 E40.8481
G1 X98.819 Y33.321 E40.87695
